JacobianZhengyu1/UR_ROS/src/my_ur5_energy/plots/runA_q.csv
time_s,shoulder_pan_joint,shoulder_lift_joint,elbow_joint,wrist_1_joint,wrist_2_joint,wrist_3_joint
0.000000000,-0.211359664,0.500463952,-1.429445645,2.313491809,1.527711938,-0.011842184
0.002000000,-0.211395078,0.500487588,-1.426375796,2.313936074,1.527976341,-0.007577475
0.004000000,-0.211411014,0.500495840,-1.423914704,2.315892872,1.528160089,-0.004848126
0.006000000,-0.211412348,0.500492666,-1.422077213,2.319101154,1.528205443,-0.003101421
0.008000000,-0.211403125,0.500481264,-1.420873117,2.323248441,1.528112897,-0.001983627
0.010000000,-0.211386309,0.500463968,-1.420304850,2.327999840,1.527923584,-0.001268357
0.012000000,-0.211363952,0.500442396,-1.420365965,2.333025084,1.527694468,-0.000810734
0.014000000,-0.211337492,0.500417676,-1.421040283,2.338021766,1.527477067,-0.000518050
0.016000000,-0.211307988,0.500390640,-1.422301672,2.342733543,1.527305079,-0.000330994
0.018000000,-0.211276266,0.500361936,-1.424114376,2.346962629,1.527191350,-0.000211639
0.020000000,-0.211242987,0.500332082,-1.426433843,2.350576409,1.527131624,-0.000135764
0.022000000,-0.211208684,0.500301495,-1.429207973,2.353508445,1.527111506,-0.000087951
0.024000000,-0.211173797,0.500270514,-1.432378665,2.355754498,1.527113532,-0.000058459
0.026000000,-0.211138721,0.500239443,-1.435883567,2.357364435,1.527122443,-0.000041248
0.028000000,-0.211103841,0.500208576,-1.439657929,2.358431083,1.527127933,-0.000032701
0.030000000,-0.211069564,0.500178223,-1.443636443,2.359077178,1.527125142,0.000030781
0.032000000,-0.211037053,0.500149202,-1.447754671,2.359449763,1.527111760,-0.014770384
0.034000000,-0.211004269,0.500120092,-1.451951843,2.359669211,1.527097777,-0.009452338
0.036000000,-0.210974005,0.500092986,-1.456170886,2.359881995,1.527076401,-0.006048822
0.038000000,-0.210946259,0.500067821,-1.460359768,2.360200788,1.527053254,-0.003870607
0.040000000,-0.210920751,0.500044420,-1.464471147,2.360712245,1.527033332,-0.002476587
0.042000000,-0.210897244,0.500022585,-1.468463520,2.361471212,1.527017951,-0.001584459
0.044000000,-0.210875689,0.500002276,-1.472302078,2.362498737,1.527004921,-0.001013554
0.046000000,-0.210856353,0.499983655,-1.475958687,2.363783888,1.526989835,-0.000648249
0.048000000,-0.210839522,0.499966965,-1.479411183,2.365288038,1.526970001,-0.000414551
0.050000000,-0.210825268,0.499952268,-1.482642767,2.366951045,1.526945509,-0.000265121
0.052000000,-0.210813506,0.499938232,-1.485640074,2.368698495,1.526918180,-0.000169690
0.054000000,-0.210803801,0.499912235,-1.488394197,2.370455294,1.526894773,-0.000108929
0.056000000,-0.210794856,0.499881965,-1.490915163,2.372137586,1.526882492,-0.000070539
0.058000000,-0.210785769,0.499863751,-1.493181694,2.373653480,1.526869691,-0.000046726
0.060000000,-0.210777970,0.499841817,-1.495193532,2.374963537,1.526850750,-0.000032663
0.062000000,-0.210772206,0.499818012,-1.496970002,2.376028148,1.526829723,-0.000025500
0.064000000,-0.210768124,0.499805357,-1.498497984,2.376803180,1.526802961,0.000023474
0.066000000,-0.210767332,0.499797285,-1.499786995,2.377306079,1.526774195,-0.014731582
0.068000000,-0.210767858,0.499791760,-1.500844347,2.377527008,1.526753664,-0.009427701
0.070000000,-0.210771972,0.499789929,-1.501677584,2.377507234,1.526735244,-0.006033203
0.072000000,-0.210778991,0.499790878,-1.502295169,2.377285914,1.526725427,-0.003860714
0.074000000,-0.210788220,0.499793902,-1.502706807,2.376910669,1.526726959,-0.002470316
0.076000000,-0.210799021,0.499798368,-1.502923777,2.376433405,1.526738375,-0.001580464
0.078000000,-0.210810927,0.499803827,-1.502959012,2.375906251,1.526755313,-0.001010977
0.080000000,-0.210823609,0.499809972,-1.502827091,2.375377986,1.526772658,-0.000646545
0.082000000,-0.210836831,0.499816584,-1.502544158,2.374891122,1.526786271,-0.000413385
0.084000000,-0.210850410,0.499823502,-1.502127772,2.374479784,1.526793852,-0.000264300
0.086000000,-0.210864192,0.499830594,-1.501596694,2.374168473,1.526794988,-0.000169119
0.088000000,-0.210878085,0.499837752,-1.500970649,2.373971697,1.526790194,-0.000108595
0.090000000,-0.210892161,0.499845038,-1.500269950,2.373894364,1.526780488,-0.000070509
0.092000000,-0.210906325,0.499852407,-1.499514998,2.373932842,1.526768501,-0.000047191
0.094000000,-0.210920351,0.499859676,-1.498726021,2.374076628,1.526756729,-0.000033949
0.096000000,-0.210934023,0.499866674,-1.497922743,2.374310275,1.526746448,-0.000028004
0.098000000,-0.210947161,0.499873261,-1.497124046,2.374615500,1.526737714,0.000027760
0.100000000,-0.210960327,0.499879794,-1.496347309,2.374981432,1.526730563,-0.014672877
0.102000000,-0.210970834,0.499884372,-1.495609304,2.375368833,1.526728981,-0.009389847
0.105000000,-0.210985888,0.499890717,-1.494606677,2.375984114,1.526713083,-0.004806516
0.106000000,-0.210990577,0.499892566,-1.494306609,2.376192602,1.526705750,-0.003844771
0.108000000,-0.210999304,0.499895765,-1.493765720,2.376609386,1.526690251,-0.002459869
0.110000000,-0.211007053,0.499898210,-1.493311253,2.377023802,1.526675125,-0.001573557
0.112000000,-0.211013785,0.499899870,-1.492950555,2.377436985,1.526661026,-0.001006363
0.114000000,-0.211019527,0.499900767,-1.492689233,2.377853730,1.526647763,-0.000643435
0.116000000,-0.211024332,0.499900943,-1.492531244,2.378281664,1.526634796,-0.000411282
0.118000000,-0.211028259,0.499900445,-1.492479017,2.378730253,1.526621584,-0.000262897
0.120000000,-0.211031359,0.499899313,-1.492533588,2.379209742,1.526607749,-0.000168237
0.122000000,-0.211033678,0.499897581,-1.492694754,2.379730121,1.526593097,-0.000108141
0.124000000,-0.211035252,0.499895277,-1.492961222,2.380300205,1.526577568,-0.000070452
0.126000000,-0.211036118,0.499892430,-1.493330751,2.380926879,1.526561160,-0.000047553
0.128000000,-0.211036316,0.499889069,-1.493800278,2.381614563,1.526543884,-0.000034792
0.130000000,-0.211035886,0.499885228,-1.494366026,2.382364921,1.526525740,-0.000029431
0.132000000,-0.211036967,0.499882820,-1.495023368,2.383187328,1.526499600,-0.018265808
0.134000000,-0.211033389,0.499876159,-1.495767681,2.384052011,1.526490687,-0.011689316
0.136000000,-0.211030755,0.499870731,-1.496593591,2.384969006,1.526471604,-0.007480358
0.138000000,-0.211028180,0.499865258,-1.497495521,2.385930765,1.526447193,-0.004786641
0.140000000,-0.211025579,0.499859767,-1.498467170,2.386927836,1.526420975,-0.003062683
0.142000000,-0.211022795,0.499854139,-1.499502000,2.387950268,1.526395662,-0.001959381
0.144000000,-0.211019760,0.499848320,-1.500593278,2.388988109,1.526372279,-0.001253311
0.146000000,-0.211016493,0.499842325,-1.501734120,2.390031945,1.526350549,-0.000801491
0.148000000,-0.211013058,0.499836204,-1.502917526,2.391073367,1.526329610,-0.000512424
0.150000000,-0.211009537,0.499830023,-1.504136435,2.392105329,1.526308609,-0.000327567
0.152000000,-0.211006012,0.499823845,-1.505383781,2.393122367,1.526287051,-0.000209485
0.154000000,-0.211002523,0.499817702,-1.506652541,2.394120682,1.526265028,-0.000134263
0.156000000,-0.210999088,0.499811609,-1.507935845,2.395098128,1.526242788,-0.000086669
0.158000000,-0.210995757,0.499805602,-1.509227073,2.396054053,1.526220449,-0.000057073
0.160000000,-0.210992595,0.499799730,-1.510519920,2.396989078,1.526198079,-0.000039485
0.162000000,-0.210989668,0.499794045,-1.511808459,2.397904827,1.526175765,-0.000030291
0.164000000,-0.210987030,0.499788589,-1.513087203,2.398803613,1.526153620,-0.000027397
0.166000000,-0.210986820,0.499785281,-1.514350938,2.399698672,1.526124655,-0.018168778
0.168000000,-0.210982839,0.499778398,-1.515595471,2.400566802,1.526113624,-0.011627310
0.170000000,-0.210980651,0.499773412,-1.516816967,2.401426841,1.526094148,-0.007440763
0.172000000,-0.210979301,0.499768979,-1.518012307,2.402281493,1.526070678,-0.004761383
0.174000000,-0.210978644,0.499765083,-1.519178620,2.403132329,1.526046290,-0.003046594
0.176000000,-0.210978457,0.499761553,-1.520313696,2.403980461,1.526023284,-0.001949151
0.178000000,-0.210978599,0.499758277,-1.521415973,2.404826439,1.526002369,-0.001246822
0.180000000,-0.210979008,0.499755207,-1.522484493,2.405670282,1.525983057,-0.000797385
0.182000000,-0.210979667,0.499752332,-1.523518857,2.406511584,1.525964361,-0.000509830
0.184000000,-0.210980579,0.499749653,-1.524519164,2.407349652,1.525945360,-0.000325927
0.186000000,-0.210981761,0.499747184,-1.525486090,2.408183593,1.525925403,-0.000208439
0.188000000,-0.210983238,0.499744944,-1.526420869,2.409012589,1.525904259,-0.000133579
0.190000000,-0.210985005,0.499742932,-1.527325057,2.409836182,1.525882207,-0.000086197
0.192000000,-0.210987039,0.499741127,-1.528200478,2.410654340,1.525859753,-0.000056717
0.194000000,-0.210989303,0.499739504,-1.529049188,2.411467466,1.525837363,-0.000039185
0.196000000,-0.210991761,0.499738032,-1.529873432,2.412276385,1.525815319,-0.000030012
0.198000000,-0.210994375,0.499736684,-1.530675609,2.413082289,1.525793683,-0.000027112
0.200000000,-0.210999210,0.499737323,-1.531458024,2.413897205,1.525765315,-0.018061254
0.202000000,-0.210999990,0.499734159,-1.532223495,2.414696846,1.525754807,-0.011558481
0.204000000,-0.211002267,0.499732666,-1.532974747,2.415499232,1.525735139,-0.007396693
0.206000000,-0.211005028,0.499731451,-1.533714589,2.416306588,1.525710822,-0.004733155
0.208000000,-0.211008104,0.499730479,-1.534445471,2.417120405,1.525685058,-0.003028502
0.210000000,-0.211011256,0.499729567,-1.535169860,2.417942090,1.525660296,-0.001937545
0.212000000,-0.211014331,0.499728595,-1.535890210,2.418772794,1.525637386,-0.001239366
0.214000000,-0.211017264,0.499727514,-1.536608922,2.419613347,1.525615949,-0.000792586
0.216000000,-0.211020038,0.499726312,-1.537328300,2.420464242,1.525595069,-0.000506735
0.218000000,-0.211022658,0.499724992,-1.538050506,2.421325645,1.525573854,-0.000323930
0.220000000,-0.211025130,0.499723561,-1.538777531,2.422197410,1.525551754,-0.000207155
0.222000000,-0.211027460,0.499722023,-1.539511173,2.423079121,1.525528631,-0.000132771
0.224000000,-0.211029646,0.499720378,-1.540253015,2.423970135,1.525504662,-0.000085723
0.226000000,-0.211031687,0.499718625,-1.541004417,2.424869635,1.525480181,-0.000056503
0.228000000,-0.211033579,0.499716760,-1.541766503,2.425776680,1.525455531,-0.000039205
0.230000000,-0.211035322,0.499714783,-1.542540159,2.426690263,1.525430970,-0.000030279
0.232000000,-0.211036914,0.499712694,-1.543326026,2.427609353,1.525406633,0.000027664
0.234000000,-0.211039051,0.499710936,-1.544124238,2.428541061,1.525382578,-0.014360919
0.236000000,-0.211039391,0.499707919,-1.544935787,2.429463355,1.525363580,-0.009190236
0.238000000,-0.211040308,0.499705363,-1.545761148,2.430389794,1.525338231,-0.005881001
0.241000000,-0.211042252,0.499701917,-1.547025233,2.431786464,1.525295948,-0.003010078
0.242000000,-0.211042949,0.499700810,-1.547453448,2.432253907,1.525282228,-0.002407665
0.244000000,-0.211044289,0.499698553,-1.548319944,2.433191863,1.525256466,-0.001540214
0.246000000,-0.211045489,0.499696189,-1.549199544,2.434134285,1.525232878,-0.000985092
0.248000000,-0.211046530,0.499693704,-1.550091782,2.435081661,1.525210614,-0.000629887
0.251000000,-0.211047825,0.499689775,-1.551452583,2.436512978,1.525177343,-0.000321946
0.252000000,-0.211048198,0.499688422,-1.551911835,2.436992980,1.525165879,-0.000257428
0.254000000,-0.211048874,0.499685665,-1.552838257,2.437957443,1.525142119,-0.000164756
0.256000000,-0.211049474,0.499682853,-1.553774550,2.438927798,1.525117296,-0.000105890
0.258000000,-0.211050010,0.499679995,-1.554719841,2.439903775,1.525091692,-0.000068923
0.260000000,-0.211050496,0.499677103,-1.555673209,2.440884869,1.525065689,-0.000046383
0.262000000,-0.211050943,0.499674184,-1.556633697,2.441870359,1.525039629,-0.000033698
0.264000000,-0.211051359,0.499671245,-1.557600316,2.442859343,1.525013734,-0.000028167
0.266000000,-0.211053835,0.499670175,-1.558571867,2.443861284,1.524981288,-0.017832225
0.268000000,-0.211052174,0.499665230,-1.559547513,2.444849146,1.524966280,-0.011411890
0.270000000,-0.211051961,0.499661930,-1.560526350,2.445837978,1.524942575,-0.007302865
0.272000000,-0.211052184,0.499658868,-1.561507485,2.446827063,1.524914641,-0.004673099
0.274000000,-0.211052718,0.499656047,-1.562489713,2.447815130,1.524885587,-0.002990064
0.276000000,-0.211053354,0.499653308,-1.563471903,2.448801115,1.524857762,-0.001912944
0.278000000,-0.211053970,0.499650554,-1.564452997,2.449784094,1.524831945,-0.001223625
0.280000000,-0.211054527,0.499647757,-1.565432012,2.450763275,1.524807721,-0.000782518
0.282000000,-0.211055032,0.499644921,-1.566408021,2.451738012,1.524784169,-0.000500300
0.284000000,-0.211055518,0.499642073,-1.567380218,2.452707806,1.524760354,-0.000319821
0.286000000,-0.211056026,0.499639245,-1.568347923,2.453672370,1.524735692,-0.000204535
0.288000000,-0.211056583,0.499636459,-1.569310517,2.454631675,1.524710089,-0.000131101
0.290000000,-0.211057203,0.499633726,-1.570267445,2.455585916,1.524683791,-0.000084658
0.292000000,-0.211057891,0.499631048,-1.571218228,2.456535470,1.524657183,-0.000055814
0.294000000,-0.211058648,0.499628427,-1.572162465,2.457480847,1.524630617,-0.000038741
0.296000000,-0.211059472,0.499625861,-1.573099837,2.458422639,1.524604321,-0.000029931
0.298000000,-0.211060361,0.499623349,-1.574030114,2.459361472,1.524578369,0.000027353
0.300000000,-0.211061976,0.499621297,-1.574952845,2.460306063,1.524552776,-0.014169122
0.302000000,-0.211062005,0.499618169,-1.575868411,2.461236054,1.524532291,-0.009067501
0.304000000,-0.211062715,0.499615576,-1.576776932,2.462166027,1.524505913,-0.005802466
0.306000000,-0.211063858,0.499613277,-1.577678436,2.463096196,1.524476865,-0.003712855
0.308000000,-0.211065238,0.499611167,-1.578572940,2.464026700,1.524448030,-0.002375521
0.310000000,-0.211066673,0.499609100,-1.579460597,2.464957625,1.524420968,-0.001519656
0.312000000,-0.211068077,0.499607010,-1.580341668,2.465888948,1.524395786,-0.000971947
0.314000000,-0.211069431,0.499604882,-1.581216501,2.466820558,1.524371749,-0.000621485
0.316000000,-0.211070745,0.499602725,-1.582085505,2.467752282,1.524347921,-0.000397302
0.318000000,-0.211072038,0.499600555,-1.582949123,2.468683916,1.524323591,-0.000254002
0.320000000,-0.211073325,0.499598383,-1.583807822,2.469615256,1.524298448,-0.000162569
0.322000000,-0.211074617,0.499596218,-1.584662077,2.470546119,1.524272540,-0.000104496
0.324000000,-0.211075916,0.499594062,-1.585512369,2.471476366,1.524246143,-0.000068035
0.326000000,-0.211077223,0.499591916,-1.586359178,2.472405914,1.524219595,-0.000045820
0.328000000,-0.211078537,0.499589779,-1.587202975,2.473334749,1.524193181,-0.000033347
0.330000000,-0.211079857,0.499587649,-1.588044223,2.474262924,1.524167073,-0.000027955
0.332000000,-0.211083248,0.499587401,-1.588883192,2.475201041,1.524134749,-0.017589050
0.334000000,-0.211082525,0.499583281,-1.589720445,2.476123424,1.524119449,-0.011256260
0.336000000,-0.211083277,0.499580839,-1.590556556,2.477046493,1.524095662,-0.007203262
0.338000000,-0.211084443,0.499578615,-1.591392021,2.477970887,1.524067789,-0.004609353
0.340000000,-0.211085898,0.499576612,-1.592227022,2.478896648,1.524038870,-0.002949265
0.342000000,-0.211087429,0.499574671,-1.593061770,2.479823918,1.524011196,-0.001886831
0.344000000,-0.211088907,0.499572690,-1.593896505,2.480752818,1.523985506,-0.001206910
0.346000000,-0.211090289,0.499570635,-1.594731487,2.481683418,1.523961371,-0.000771819
0.348000000,-0.211091576,0.499568508,-1.595566970,2.482615737,1.523937870,-0.000493451
0.350000000,-0.211092787,0.499566327,-1.596403191,2.483549745,1.523914134,-0.000315439
0.352000000,-0.211093945,0.499564107,-1.597240352,2.484485364,1.523889640,-0.000201736
0.354000000,-0.211095066,0.499561861,-1.598078624,2.485422474,1.523864264,-0.000129324
0.356000000,-0.211096159,0.499559598,-1.598918138,2.486360927,1.523838183,-0.000083546
0.358000000,-0.211097230,0.499557322,-1.599758992,2.487300545,1.523811712,-0.000055150
0.360000000,-0.211098283,0.499555034,-1.600601251,2.488241140,1.523785165,-0.000038395
0.362000000,-0.211099320,0.499552739,-1.601444947,2.489182521,1.523758766,-0.000029836
0.364000000,-0.211100344,0.499550436,-1.602290081,2.490124501,1.523732615,0.000027477
0.366000000,-0.211101988,0.499548504,-1.603136331,2.491074966,1.523706849,-0.013970849
0.368000000,-0.211102036,0.499545503,-1.603984063,2.492012968,1.523685907,-0.008940598
0.370000000,-0.211102684,0.499542969,-1.604833308,2.492952387,1.523659206,-0.005721242
0.372000000,-0.211103694,0.499540674,-1.605683890,2.493892942,1.523629920,-0.003660866
0.374000000,-0.211104883,0.499538523,-1.606535540,2.494834402,1.523600867,-0.002342243
0.376000000,-0.211106074,0.499536374,-1.607388034,2.495776611,1.523573547,-0.001498354
0.378000000,-0.211107192,0.499534169,-1.608241189,2.496719420,1.523548028,-0.000958312
0.380000000,-0.211108223,0.499531898,-1.609094846,2.497662683,1.523523562,-0.000612758
0.382000000,-0.211109182,0.499529575,-1.609948853,2.498606264,1.523499225,-0.000391718
0.384000000,-0.211110088,0.499527216,-1.610803053,2.499550033,1.523474370,-0.000250433
0.386000000,-0.211110953,0.499524830,-1.611657286,2.500493872,1.523448715,-0.000160296
0.388000000,-0.211111787,0.499522425,-1.612511386,2.501437672,1.523422278,-0.000103060
0.390000000,-0.211112604,0.499520010,-1.613365191,2.502381333,1.523395274,-0.000067146
0.392000000,-0.211113414,0.499517593,-1.614218540,2.503324764,1.523367997,-0.000045299
0.394000000,-0.211114224,0.499515180,-1.615071272,2.504267888,1.523340716,-0.000033085
0.396000000,-0.211115042,0.499512777,-1.615923232,2.505210636,1.523313611,-0.000027892
0.398000000,-0.211117925,0.499512251,-1.616774120,2.506163392,1.523280389,-0.017336881
0.400000000,-0.211116753,0.499507893,-1.617623884,2.507100349,1.523263509,-0.011094873
0.402000000,-0.211117069,0.499505235,-1.618472585,2.508037631,1.523238536,-0.007099974
0.404000000,-0.211117786,0.499502779,-1.619320206,2.508975588,1.523209663,-0.004543249
0.406000000,-0.211118805,0.499500553,-1.620166477,2.509913976,1.523179731,-0.002906959
0.408000000,-0.211119928,0.499498410,-1.621011191,2.510852676,1.523150920,-0.001859757
0.410000000,-0.211121033,0.499496252,-1.621854205,2.511791581,1.523123958,-0.001189585
0.412000000,-0.211122077,0.499494049,-1.622695435,2.512730579,1.523098474,-0.000760733
0.414000000,-0.211123061,0.499491801,-1.623534832,2.513669560,1.523073619,-0.000486360
0.416000000,-0.211124002,0.499489523,-1.624372371,2.514608415,1.523048571,-0.000310905
0.418000000,-0.211124923,0.499487230,-1.625208043,2.515547048,1.523022789,-0.000198842
0.420000000,-0.211125850,0.499484944,-1.626041850,2.516485372,1.522996114,-0.000127481
0.422000000,-0.211126796,0.499482676,-1.626873795,2.517423319,1.522968729,-0.000082383
0.424000000,-0.211127766,0.499480428,-1.627703885,2.518360836,1.522940991,-0.000054429
0.426000000,-0.211128755,0.499478199,-1.628532135,2.519297885,1.522913244,-0.000037971
0.428000000,-0.211129762,0.499475985,-1.629358564,2.520234449,1.522885717,-0.000029617
0.430000000,-0.211130781,0.499473785,-1.630183202,2.521170525,1.522858494,0.000027410
0.432000000,-0.211132426,0.499471950,-1.631005804,2.522114135,1.522831703,-0.013765592
0.434000000,-0.211132539,0.499469114,-1.631826796,2.523044640,1.522809536,-0.008809235
0.436000000,-0.211133257,0.499466740,-1.632646354,2.523975989,1.522781780,-0.005637171
0.438000000,-0.211134339,0.499464605,-1.633464453,2.524908045,1.522751521,-0.003607061
0.440000000,-0.211135607,0.499462619,-1.634281004,2.525840698,1.522721491,-0.002307809
0.442000000,-0.211136887,0.499460642,-1.635095984,2.526773893,1.522693148,-0.001476318
0.444000000,-0.211138103,0.499458617,-1.635909424,2.527707569,1.522666558,-0.000944211
0.446000000,-0.211139242,0.499456533,-1.636721394,2.528641656,1.522640999,-0.000603736
0.448000000,-0.211140319,0.499454404,-1.637531980,2.529576075,1.522615576,-0.000385948
0.450000000,-0.211141357,0.499452248,-1.638341271,2.530510747,1.522589620,-0.000246747
0.452000000,-0.211142374,0.499450079,-1.639149353,2.531445595,1.522562844,-0.000157947
0.454000000,-0.211143383,0.499447906,-1.639956305,2.532380546,1.522535301,-0.000101572
0.456000000,-0.211144390,0.499445735,-1.640762200,2.533315533,1.522507249,-0.000066221
0.458000000,-0.211145397,0.499443568,-1.641567106,2.534250500,1.522479000,-0.000044751
0.460000000,-0.211146407,0.499441406,-1.642371085,2.535185402,1.522450812,-0.000032802
0.462000000,-0.211147419,0.499439249,-1.643174193,2.536120206,1.522422836,-0.000027810
0.464000000,-0.211150467,0.499438953,-1.643976346,2.537065290,1.522389023,-0.017075948
0.466000000,-0.211149455,0.499434810,-1.644777622,2.537994990,1.522370995,-0.010927876
0.468000000,-0.211149959,0.499432391,-1.645578329,2.538925440,1.522344861,-0.006993096
0.470000000,-0.211150849,0.499430165,-1.646378573,2.539857000,1.522314871,-0.004474847
0.472000000,-0.211152024,0.499428155,-1.647178226,2.540789468,1.522283905,-0.002863182
0.474000000,-0.211153279,0.499426209,-1.647977200,2.541722757,1.522254122,-0.001831740
0.476000000,-0.211154492,0.499424232,-1.648775463,2.542656791,1.522226193,-0.001171655
0.478000000,-0.211155627,0.499422194,-1.649573020,2.543591486,1.522199691,-0.000749261
0.480000000,-0.211156687,0.499420101,-1.650369898,2.544526749,1.522173733,-0.000479022
0.482000000,-0.211157694,0.499417970,-1.651166128,2.545462482,1.522147504,-0.000306216
0.484000000,-0.211158670,0.499415817,-1.651961736,2.546398587,1.522120525,-0.000195852
0.486000000,-0.211159630,0.499413656,-1.652756739,2.547334966,1.522092700,-0.000125585
0.488000000,-0.211160583,0.499411493,-1.653551146,2.548271523,1.522064210,-0.000081197
0.490000000,-0.211161534,0.499409331,-1.654344958,2.549208169,1.522035364,-0.000053715
0.492000000,-0.211162485,0.499407172,-1.655138171,2.550144823,1.522006461,-0.000037583
0.494000000,-0.211163439,0.499405019,-1.655930777,2.551081414,1.521977709,-0.000029473
0.496000000,-0.211164396,0.499402871,-1.656722760,2.552017883,1.521949203,0.000027463
0.498000000,-0.211165939,0.499401050,-1.657513833,2.552962142,1.521921170,-0.013553054
0.500000000,-0.211166010,0.499398290,-1.658304343,2.553893644,1.521897475,-0.008673211
0.502000000,-0.211166666,0.499395971,-1.659094402,2.554826183,1.521868416,-0.005550116
0.504000000,-0.211167672,0.499393878,-1.659883905,2.555759570,1.521837011,-0.003551347
0.506000000,-0.211168856,0.499391927,-1.660672684,2.556693644,1.521805907,-0.002272153
0.508000000,-0.211170048,0.499389982,-1.661460630,2.557628308,1.521776495,-0.001453500
0.510000000,-0.211171174,0.499387987,-1.662247683,2.558563462,1.521748808,-0.000929610
0.512000000,-0.211172222,0.499385934,-1.663033819,2.559499004,1.521722123,-0.000594395
0.514000000,-0.211173210,0.499383836,-1.663819031,2.560434830,1.521695561,-0.000379977
0.516000000,-0.211174159,0.499381712,-1.664603313,2.561370839,1.521668478,-0.000242934
0.518000000,-0.211175090,0.499379576,-1.665386657,2.562306930,1.521640605,-0.000155521
0.520000000,-0.211176013,0.499377437,-1.666169054,2.563243011,1.521612008,-0.000100043
0.522000000,-0.211176935,0.499375301,-1.666950488,2.564178996,1.521582948,-0.000065278
0.524000000,-0.211177860,0.499373170,-1.667730943,2.565114808,1.521553735,-0.000044202
0.526000000,-0.211178789,0.499371046,-1.668510403,2.566050383,1.521524623,-0.000032534
0.528000000,-0.211179724,0.499368929,-1.669288850,2.566985669,1.521495758,-0.000027758
0.530000000,-0.211182672,0.499368659,-1.670066147,2.567930973,1.521461390,-0.016805353
0.532000000,-0.211181595,0.499364559,-1.670842271,2.568860743,1.521442164,-0.010754698
0.534000000,-0.211182057,0.499362211,-1.671617510,2.569791035,1.521415117,-0.006882263
0.536000000,-0.211182890,0.499360040,-1.672391901,2.570722178,1.521384403,-0.004403915
0.538000000,-0.211184004,0.499358081,-1.673165281,2.571653955,1.521352804,-0.002817788
0.540000000,-0.211185197,0.499356187,-1.673937531,2.572586269,1.521322396,-0.001802690
0.542000000,-0.211186352,0.499354263,-1.674708591,2.573519042,1.521293811,-0.001153066
0.544000000,-0.211187432,0.499352282,-1.675478444,2.574452192,1.521266613,-0.000737367
0.546000000,-0.211188444,0.499350251,-1.676247104,2.575385635,1.521239944,-0.000471415
0.548000000,-0.211189408,0.499348185,-1.677014593,2.576319288,1.521213020,-0.000301356
0.550000000,-0.211190347,0.499346103,-1.677780933,2.577253068,1.521185388,-0.000192753
0.552000000,-0.211191274,0.499344014,-1.678546146,2.578186899,1.521156961,-0.000123621
0.554000000,-0.211192199,0.499341928,-1.679310250,2.579120709,1.521127917,-0.000079969
0.556000000,-0.211193125,0.499339845,-1.680073261,2.580054433,1.521098551,-0.000052975
0.558000000,-0.211194055,0.499337768,-1.680835195,2.580988016,1.521069147,-0.000037179
0.560000000,-0.211194990,0.499335699,-1.681596068,2.581921416,1.521039896,-0.000029318
0.562000000,-0.211195932,0.499333637,-1.682355895,2.582854601,1.521010881,0.000027509
0.564000000,-0.211197426,0.499331869,-1.683114426,2.583795451,1.520982395,-0.013332894
0.566000000,-0.211197519,0.499329230,-1.683872030,2.584723609,1.520957922,-0.008532309
0.568000000,-0.211198181,0.499327014,-1.684628864,2.585652779,1.520928272,-0.005459939
0.570000000,-0.211199180,0.499325013,-1.685384859,2.586582801,1.520896369,-0.003493635
0.572000000,-0.211200353,0.499323150,-1.686139895,2.587513529,1.520864767,-0.002235219
0.574000000,-0.211201531,0.499321292,-1.686893907,2.588444887,1.520834789,-0.001429864
0.576000000,-0.211202644,0.499319383,-1.687646881,2.589376798,1.520806444,-0.000914486
0.578000000,-0.211203681,0.499317418,-1.688398835,2.590309179,1.520779016,-0.000584720
0.580000000,-0.211204659,0.499315410,-1.689149803,2.591241947,1.520751651,-0.000373791
0.582000000,-0.211205599,0.499313375,-1.689899819,2.592175015,1.520723731,-0.000238985
0.584000000,-0.211206521,0.499311329,-1.690648914,2.593108300,1.520695006,-0.000153009
0.586000000,-0.211207435,0.499309280,-1.691397113,2.594041717,1.520665547,-0.000098459
0.588000000,-0.211208347,0.499307233,-1.692144435,2.594975188,1.520635612,-0.000064303
0.590000000,-0.211209261,0.499305190,-1.692890896,2.595908641,1.520605504,-0.000043639
0.592000000,-0.211210177,0.499303152,-1.693636509,2.596842014,1.520575467,-0.000032266
0.594000000,-0.211211098,0.499301120,-1.694381284,2.597775253,1.520545638,-0.000027719
0.596000000,-0.211214001,0.499300915,-1.695125119,2.598718599,1.520510581,-0.016525102
0.598000000,-0.211212916,0.499296898,-1.695867979,2.599646650,1.520489922,-0.010575338
0.600000000,-0.211213387,0.499294656,-1.696610201,2.600575375,1.520461684,-0.006767472
0.602000000,-0.211214205,0.499292570,-1.697351818,2.601505077,1.520429927,-0.004330450
0.604000000,-0.211215293,0.499290687,-1.698092683,2.602435527,1.520397341,-0.002770770
0.606000000,-0.211216454,0.499288863,-1.698832687,2.603366617,1.520365925,-0.001772600
0.608000000,-0.211217574,0.499287007,-1.699571773,2.604298258,1.520336272,-0.001133810
0.610000000,-0.211218618,0.499285093,-1.700309928,2.605230361,1.520307948,-0.000725047
0.612000000,-0.211219594,0.499283129,-1.701047159,2.606162838,1.520280120,-0.000463535
0.614000000,-0.211220522,0.499281131,-1.701783483,2.607095596,1.520252036,-0.000296320
0.616000000,-0.211221424,0.499279115,-1.702518911,2.608028548,1.520223271,-0.000189543
0.618000000,-0.211222314,0.499277093,-1.703253453,2.608961608,1.520193754,-0.000121586
0.620000000,-0.211223201,0.499275072,-1.703987110,2.609894694,1.520163667,-0.000078699
0.622000000,-0.211224088,0.499273054,-1.704719883,2.610827731,1.520133303,-0.000052212
0.624000000,-0.211224978,0.499271041,-1.705451768,2.611760653,1.520102936,-0.000036770
0.626000000,-0.211225871,0.499269034,-1.706182760,2.612693404,1.520072759,-0.000029173
0.628000000,-0.211226770,0.499267034,-1.706912855,2.613625940,1.520042855,0.000027580
0.630000000,-0.211228184,0.499265293,-1.707641790,2.614566065,1.520013598,-0.013104358
0.632000000,-0.211228270,0.499262748,-1.708369896,2.615493582,1.519988078,-0.008386045
0.634000000,-0.211228905,0.499260607,-1.709097312,2.616422066,1.519957648,-0.005366330
0.636000000,-0.211229862,0.499258668,-1.709823947,2.617351345,1.519925132,-0.003433725
0.638000000,-0.211230986,0.499256862,-1.710549660,2.618281262,1.519892980,-0.002196878
0.640000000,-0.211232114,0.499255058,-1.711274367,2.619211731,1.519862444,-0.001405327
0.642000000,-0.211233176,0.499253205,-1.711998034,2.620142668,1.519833506,-0.000898784
0.644000000,-0.211234165,0.499251296,-1.712720659,2.621073989,1.519805460,-0.000574675
0.646000000,-0.211235098,0.499249346,-1.713442256,2.622005610,1.519777475,-0.000367368
0.648000000,-0.211235995,0.499247372,-1.714162841,2.622937448,1.519748955,-0.000234885
0.650000000,-0.211236876,0.499245388,-1.714882428,2.623869419,1.519719664,-0.000150401
0.652000000,-0.211237751,0.499243403,-1.715601027,2.624801446,1.519689671,-0.000096816
0.654000000,-0.211238626,0.499241420,-1.716318644,2.625733454,1.519659223,-0.000063292
0.656000000,-0.211239503,0.499239442,-1.717035284,2.626665376,1.519628606,-0.000043058
0.658000000,-0.211240384,0.499237470,-1.717750949,2.627597155,1.519598047,-0.000031995
0.660000000,-0.211241270,0.499235505,-1.718465643,2.628528743,1.519567667,-0.000027689
0.662000000,-0.211244106,0.499235346,-1.719179273,2.629470311,1.519532353,-0.016234114
0.664000000,-0.211243003,0.499231402,-1.719891765,2.630396645,1.519510647,-0.010389106
0.666000000,-0.211243472,0.499229253,-1.720603487,2.631323616,1.519481603,-0.006648283
0.668000000,-0.211244267,0.499227242,-1.721314452,2.632251513,1.519449170,-0.004254168
0.670000000,-0.211245323,0.499225427,-1.722024522,2.633180110,1.519415925,-0.002721951
0.672000000,-0.211246449,0.499223668,-1.722733595,2.634109297,1.519383774,-0.001741356
0.674000000,-0.211247533,0.499221876,-1.723441621,2.635038992,1.519353260,-0.001113816
0.676000000,-0.211248544,0.499220029,-1.724148591,2.635969114,1.519323951,-0.000712253
0.678000000,-0.211249488,0.499218133,-1.724854520,2.636899581,1.519295043,-0.000455352
0.680000000,-0.211250387,0.499216204,-1.725559430,2.637830313,1.519265819,-0.000291091
0.682000000,-0.211251262,0.499214260,-1.726263341,2.638761229,1.519235881,-0.000186209
0.684000000,-0.211252127,0.499212311,-1.726966269,2.639692251,1.519205174,-0.000119474
0.686000000,-0.211252989,0.499210362,-1.727668228,2.640623304,1.519173878,-0.000077381
0.688000000,-0.211253852,0.499208418,-1.728369226,2.641554319,1.519142277,-0.000051423
0.690000000,-0.211254719,0.499206479,-1.729069272,2.642485233,1.519110635,-0.000036351
0.692000000,-0.211255589,0.499204546,-1.729768371,2.643415993,1.519079129,-0.000029031
0.694000000,-0.211256465,0.499202619,-1.730466529,2.644346560,1.519047831,0.000027668
0.696000000,-0.211257818,0.499200916,-1.731163502,2.645284668,1.519017186,-0.012867302
0.698000000,-0.211257918,0.499198480,-1.731859620,2.646210305,1.518989884,-0.008234327
0.700000000,-0.211258546,0.499196425,-1.732555032,2.647136916,1.518957852,-0.005269230
0.702000000,-0.211259481,0.499194560,-1.733249656,2.648064325,1.518923819,-0.003371581
0.704000000,-0.211260575,0.499192821,-1.733943369,2.648992372,1.518890140,-0.002157106
0.706000000,-0.211261670,0.499191083,-1.734636096,2.649920964,1.518858010,-0.001379873
0.708000000,-0.211262700,0.499189295,-1.735327815,2.650850021,1.518827399,-0.000882496
0.710000000,-0.211263658,0.499187453,-1.736018531,2.651779459,1.518797620,-0.000564254
0.712000000,-0.211264561,0.499185572,-1.736708267,2.652709197,1.518767880,-0.000360705
0.714000000,-0.211265432,0.499183667,-1.737397045,2.653639155,1.518737618,-0.000230631
0.716000000,-0.211266286,0.499181754,-1.738084884,2.654569255,1.518706621,-0.000147695
0.718000000,-0.211267136,0.499179839,-1.738771799,2.655499422,1.518674968,-0.000095112
0.720000000,-0.211267984,0.499177926,-1.739457801,2.656429585,1.518642907,-0.000062247
0.722000000,-0.211268835,0.499176018,-1.740142898,2.657359681,1.518610718,-0.000042461
0.724000000,-0.211269690,0.499174116,-1.740827098,2.658289651,1.518578613,-0.000031722
0.726000000,-0.211270549,0.499172220,-1.741510408,2.659219449,1.518546697,-0.000027673
0.728000000,-0.211273322,0.499172105,-1.742192750,2.660159164,1.518510190,-0.015932478
0.730000000,-0.211272209,0.499168239,-1.742874021,2.661083784,1.518486514,-0.010196059
0.732000000,-0.211272681,0.499166185,-1.743554620,2.662009063,1.518455818,-0.006524732
0.734000000,-0.211273456,0.499164247,-1.744234539,2.662935279,1.518421938,-0.004175095
0.736000000,-0.211274479,0.499162497,-1.744913650,2.663862198,1.518387351,-0.002671343
0.738000000,-0.211275568,0.499160798,-1.745591849,2.664789711,1.518353880,-0.001708967
0.740000000,-0.211276614,0.499159066,-1.746269087,2.665717738,1.518322031,-0.001093088
0.742000000,-0.211277587,0.499157279,-1.746945355,2.666646196,1.518291371,-0.000698990
0.744000000,-0.211278496,0.499155445,-1.747620663,2.667575009,1.518261116,-0.000446868
0.746000000,-0.211279362,0.499153580,-1.748295029,2.668504096,1.518230577,-0.000285669
0.748000000,-0.211280205,0.499151700,-1.748968467,2.669433381,1.518199377,-0.000182753
0.750000000,-0.211281038,0.499149815,-1.749640988,2.670362787,1.518167468,-0.000117284
0.752000000,-0.211281869,0.499147932,-1.750312596,2.671292241,1.518135029,-0.000076017
0.754000000,-0.211282701,0.499146052,-1.750983294,2.672221676,1.518102335,-0.000050609
0.756000000,-0.211283536,0.499144177,-1.751653082,2.673151028,1.518069638,-0.000035923
0.758000000,-0.211284374,0.499142307,-1.752321956,2.674080245,1.518037106,-0.000028896
0.760000000,-0.211285216,0.499140443,-1.752989914,2.675009283,1.518004807,0.000027776
0.762000000,-0.211286497,0.499138768,-1.753656710,2.675945809,1.517973260,-0.012621732
0.764000000,-0.211286603,0.499136430,-1.754322653,2.676869997,1.517944744,-0.008077161
0.767000000,-0.211287633,0.499133525,-1.755320201,2.678258047,1.517894443,-0.004134508
0.768000000,-0.211288116,0.499132649,-1.755652302,2.678721108,1.517876967,-0.003307204
0.770000000,-0.211289171,0.499130968,-1.756315787,2.679647687,1.517842571,-0.002115904
0.772000000,-0.211290223,0.499129284,-1.756978255,2.680574799,1.517809706,-0.001353505
0.774000000,-0.211291211,0.499127552,-1.757639674,2.681502361,1.517778322,-0.000865621
0.776000000,-0.211292130,0.499125767,-1.758300043,2.682430291,1.517747745,-0.000553458
0.778000000,-0.211292997,0.499123945,-1.758959374,2.683358513,1.517717209,-0.000353801
0.780000000,-0.211293833,0.499122102,-1.759617682,2.684286947,1.517686178,-0.000226223
0.782000000,-0.211294655,0.499120251,-1.760274979,2.685215518,1.517654453,-0.000144893
0.784000000,-0.211295473,0.499118399,-1.760931271,2.686144152,1.517622113,-0.000093349
0.786000000,-0.211296291,0.499116551,-1.761586564,2.687072778,1.517589393,-0.000061167
0.788000000,-0.211297112,0.499114707,-1.762240860,2.688001332,1.517556559,-0.000041847
0.790000000,-0.211297936,0.499112868,-1.762894164,2.688929755,1.517523816,-0.000031448
0.792000000,-0.211298765,0.499111036,-1.763546476,2.689858000,1.517491272,-0.000027669
0.794000000,-0.211301466,0.499110956,-1.764197728,2.690796061,1.517454505,-0.015619748
0.796000000,-0.211300345,0.499107166,-1.764847789,2.691719150,1.517429781,-0.009995911
0.798000000,-0.211300820,0.499105203,-1.765497081,2.692642880,1.517398381,-0.006396635
0.800000000,-0.211301574,0.499103336,-1.766145579,2.693567508,1.517364005,-0.004093112
0.802000000,-0.211302566,0.499101648,-1.766793164,2.694492795,1.517329007,-0.002618873
0.804000000,-0.211303620,0.499100009,-1.767439739,2.695418624,1.517295106,-0.001675387
0.806000000,-0.211304631,0.499098336,-1.768085262,2.696344908,1.517262757,-0.001071597
0.808000000,-0.211305571,0.499096610,-1.768729727,2.697271566,1.517231521,-0.000685238
0.810000000,-0.211306451,0.499094840,-1.769373152,2.698198519,1.517200639,-0.000438072
0.812000000,-0.211307290,0.499093040,-1.770015560,2.699125689,1.517169450,-0.000280048
0.816000000,-0.211308919,0.499089411,-1.771297409,2.700980383,1.517105045,-0.000115016
0.817000000,-0.211309323,0.499088504,-1.771617264,2.701444077,1.517088555,-0.000092442
0.818000000,-0.211309728,0.499087597,-1.771936880,2.701907762,1.517071964,-0.000074605
0.820000000,-0.211310538,0.499085786,-1.772575398,2.702835073,1.517038614,-0.000049770
0.822000000,-0.211311350,0.499083980,-1.773212973,2.703762258,1.517005245,-0.000035487
0.824000000,-0.211312167,0.499082179,-1.773849611,2.704689270,1.516972025,-0.000028766
0.826000000,-0.211312987,0.499080384,-1.774485321,2.705616072,1.516939023,0.000027904
0.828000000,-0.211314205,0.499078742,-1.775119871,2.706550261,1.516906835,-0.012366536
0.830000000,-0.211314332,0.499076509,-1.775753577,2.707472225,1.516877320,-0.007913834
0.832000000,-0.211314940,0.499074614,-1.776386578,2.708395135,1.516843588,-0.005064111
0.834000000,-0.211315821,0.499072880,-1.777018795,2.709318820,1.516808133,-0.003240303
0.836000000,-0.211316847,0.499071262,-1.777650114,2.710243115,1.516773075,-0.002073087
0.838000000,-0.211317869,0.499069639,-1.778280465,2.711167931,1.516739459,-0.001326102
0.840000000,-0.211318828,0.499067969,-1.778909825,2.712093190,1.516707210,-0.000848085
0.842000000,-0.211319718,0.499066248,-1.779538201,2.713018816,1.516675671,-0.000542238
0.844000000,-0.211320559,0.499064490,-1.780165609,2.713944734,1.516644110,-0.000346628
0.846000000,-0.211321370,0.499062712,-1.780792067,2.714870871,1.516612025,-0.000221644
0.848000000,-0.211322167,0.499060926,-1.781417590,2.715797152,1.516579234,-0.000141982
0.850000000,-0.211322960,0.499059140,-1.782042186,2.716723506,1.516545825,-0.000091518
0.852000000,-0.211323753,0.499057356,-1.782665861,2.717649862,1.516512027,-0.000060049
0.854000000,-0.211324547,0.499055577,-1.783288618,2.718576155,1.516478093,-0.000041216
0.856000000,-0.211325345,0.499053802,-1.783910457,2.719502327,1.516444217,-0.000031174
0.858000000,-0.211326146,0.499052033,-1.784531378,2.720428329,1.516410501,-0.000027680
0.860000000,-0.211328775,0.499051982,-1.785151321,2.721364055,1.516372878,-0.015294378
0.862000000,-0.211327652,0.499048273,-1.785770123,2.722284969,1.516346427,-0.009787673
0.864000000,-0.211328131,0.499046398,-1.786388225,2.723206528,1.516313600,-0.006263361
0.866000000,-0.211328862,0.499044598,-1.787005577,2.724128979,1.516277957,-0.004007815
0.868000000,-0.211329821,0.499042967,-1.787622060,2.725052080,1.516241728,-0.002564283
0.870000000,-0.211330835,0.499041381,-1.788237575,2.725975716,1.516206535,-0.001640449
0.872000000,-0.211331807,0.499039762,-1.788852071,2.726899807,1.516172790,-0.001049238
0.874000000,-0.211332710,0.499038090,-1.789465539,2.727824278,1.516140060,-0.000670931
0.876000000,-0.211333554,0.499036376,-1.790077984,2.728749061,1.516107620,-0.000428920
0.878000000,-0.211334361,0.499034634,-1.790689423,2.729674087,1.516074850,-0.000274201
0.880000000,-0.211335147,0.499032881,-1.791299866,2.730599289,1.516041425,-0.000175444
0.882000000,-0.211335927,0.499031124,-1.791909322,2.731524599,1.516007321,-0.000112658
0.884000000,-0.211336705,0.499029369,-1.792517797,2.732449948,1.515972714,-0.000073139
0.886000000,-0.211337485,0.499027618,-1.793125294,2.733375270,1.515937857,-0.000048903
0.888000000,-0.211338269,0.499025872,-1.793731815,2.734300505,1.515902980,-0.000035041
0.890000000,-0.211339055,0.499024131,-1.794337361,2.735225594,1.515868230,-0.000028643
0.892000000,-0.211339846,0.499022396,-1.794941934,2.736150492,1.515833660,0.000028053
0.894000000,-0.211340995,0.499020780,-1.795545305,2.737082698,1.515799935,-0.012101337
0.896000000,-0.211341137,0.499018645,-1.796147781,2.738002805,1.515768506,-0.007744105
0.903000000,-0.211344077,0.499012809,-1.798249836,2.741229099,1.515641703,-0.001622494
0.904000000,-0.211344564,0.499012020,-1.798549150,2.741690494,1.515624286,-0.001297626
0.905000000,-0.211345034,0.499011219,-1.798848203,2.742151976,1.515607203,-0.001037747
0.906000000,-0.211345487,0.499010404,-1.799146996,2.742613534,1.515590379,-0.000829863
0.907000000,-0.211345924,0.499009578,-1.799445530,2.743075159,1.515573723,-0.000663579
0.908000000,-0.211346346,0.499008741,-1.799743808,2.743536840,1.515557142,-0.000530580
0.910000000,-0.211347158,0.499007043,-1.800339605,2.744460336,1.515523881,-0.000339174
0.912000000,-0.211347943,0.499005327,-1.800934408,2.745383947,1.515490129,-0.000216887
0.914000000,-0.211348716,0.499003604,-1.801528233,2.746307603,1.515455727,-0.000138960
0.916000000,-0.211349486,0.499001882,-1.802121093,2.747231234,1.515420765,-0.000089620
0.918000000,-0.211350256,0.499000162,-1.802712998,2.748154777,1.515385469,-0.000058892
0.920000000,-0.211351028,0.498998447,-1.803303957,2.749078170,1.515350078,-0.000040568
0.922000000,-0.211351804,0.498996737,-1.803893977,2.750001364,1.515314768,-0.000030899
0.924000000,-0.211352584,0.498995033,-1.804483065,2.750924318,1.515279630,-0.000027705
0.926000000,-0.211355143,0.498995009,-1.805071177,2.751856828,1.515240963,-0.014956770
0.928000000,-0.211354031,0.498991388,-1.805658136,2.752774642,1.515212632,-0.009571603
0.930000000,-0.211354521,0.498989606,-1.806244407,2.753693056,1.515178300,-0.006125075
0.932000000,-0.211355238,0.498987875,-1.806829930,2.754612319,1.515141376,-0.003919311
0.934000000,-0.211356170,0.498986305,-1.807414601,2.755532199,1.515103968,-0.002507640
0.936000000,-0.211357154,0.498984775,-1.807998331,2.756452586,1.515067599,-0.001604198
0.938000000,-0.211358094,0.498983212,-1.808581077,2.757373405,1.515032637,-0.001026039
0.940000000,-0.211358968,0.498981599,-1.809162834,2.758294584,1.514998655,-0.000656087
0.942000000,-0.211359786,0.498979945,-1.809743614,2.759216058,1.514964955,-0.000419427
0.944000000,-0.211360568,0.498978265,-1.810323433,2.760137760,1.514930950,-0.000268136
0.946000000,-0.211361331,0.498976573,-1.810902304,2.761059624,1.514896337,-0.000171581
0.948000000,-0.211362087,0.498974879,-1.811480236,2.761981583,1.514861096,-0.000110215
0.950000000,-0.211362842,0.498973186,-1.812057234,2.762903571,1.514825398,-0.000071624
0.952000000,-0.211363598,0.498971497,-1.812633300,2.763825524,1.514789483,-0.000048011
0.954000000,-0.211364357,0.498969812,-1.813208432,2.764747383,1.514753566,-0.000034590
0.956000000,-0.211365118,0.498968132,-1.813782630,2.765669097,1.514717781,-0.000028531
0.958000000,-0.211365883,0.498966456,-1.814355891,2.766590623,1.514682178,0.000028228
0.960000000,-0.211366963,0.498964865,-1.814927984,2.767519384,1.514647482,-0.011826120
0.962000000,-0.211367124,0.498962827,-1.815499209,2.768436207,1.514614740,-0.007567965
0.964000000,-0.211367712,0.498961080,-1.816069675,2.769353944,1.514578291,-0.004842753
0.966000000,-0.211368537,0.498959464,-1.816639298,2.770272416,1.514540379,-0.003098633
0.968000000,-0.211369492,0.498957952,-1.817207967,2.771191447,1.514502889,-0.001982418
0.970000000,-0.211370439,0.498956434,-1.817775614,2.772110947,1.514466724,-0.001268077
0.972000000,-0.211371326,0.498954869,-1.818342212,2.773030835,1.514431777,-0.000810954
0.974000000,-0.211372152,0.498953260,-1.818907763,2.773951042,1.514397440,-0.000518484
0.976000000,-0.211372934,0.498951618,-1.819472279,2.774871498,1.514363052,-0.000331442
0.978000000,-0.211373691,0.498949959,-1.820035773,2.775792136,1.514328177,-0.000211954
0.980000000,-0.211374436,0.498948295,-1.820598254,2.776712889,1.514292669,-0.000135827
0.982000000,-0.211375179,0.498946631,-1.821159728,2.777633689,1.514256619,-0.000087656
0.984000000,-0.211375923,0.498944970,-1.821720200,2.778554471,1.514220243,-0.000057699
0.986000000,-0.211376669,0.498943313,-1.822279671,2.779475172,1.514183770,-0.000039906
0.988000000,-0.211377418,0.498941661,-1.822838143,2.780395733,1.514147373,-0.000030628
0.990000000,-0.211378171,0.498940014,-1.823395617,2.781316104,1.514111138,-0.000027748
0.992000000,-0.211380649,0.498940007,-1.823952055,2.782245950,1.514071735,-0.014606122
0.994000000,-0.211379547,0.498936472,-1.824507256,2.783161302,1.514041804,-0.009347188
0.996000000,-0.211380045,0.498934774,-1.825061699,2.784077247,1.514006238,-0.005981449
0.998000000,-0.211380742,0.498933107,-1.825615305,2.784994014,1.513968283,-0.003827391
1.000000000,-0.211381643,0.498931591,-1.826167976,2.785911350,1.513929914,-0.002448811
1.002000000,-0.211382592,0.498930113,-1.826719629,2.786829131,1.513892552,-0.001566549
1.004000000,-0.211383499,0.498928601,-1.827270222,2.787747269,1.513856520,-0.001001947
1.006000000,-0.211384342,0.498927042,-1.827819752,2.788665685,1.513821398,-0.000640673
1.008000000,-0.211385132,0.498925445,-1.828368233,2.789584305,1.513786522,-0.000409570
1.010000000,-0.211385890,0.498923824,-1.828915682,2.790503059,1.513751339,-0.000261841
1.012000000,-0.211386630,0.498922192,-1.829462114,2.791421880,1.513715572,-0.000167573
1.014000000,-0.211387365,0.498920559,-1.830007542,2.792340699,1.513679210,-0.000107684
1.016000000,-0.211388099,0.498918928,-1.830551974,2.793259454,1.513642421,-0.000070058
1.018000000,-0.211388835,0.498917301,-1.831095416,2.794178085,1.513605432,-0.000047093
1.020000000,-0.211389573,0.498915678,-1.831637874,2.795096545,1.513568445,-0.000034134
1.022000000,-0.211390315,0.498914059,-1.832179353,2.796014791,1.513531586,-0.000028429
1.024000000,-0.211392754,0.498914060,-1.832719822,2.796942441,1.513491742,-0.014436952
1.026000000,-0.211391661,0.498910568,-1.833259074,2.797855686,1.513460974,-0.009238919
1.028000000,-0.211392165,0.498908912,-1.833797597,2.798769529,1.513424786,-0.005912157
1.030000000,-0.211392855,0.498907277,-1.834335306,2.799684205,1.513386337,-0.003783045
1.032000000,-0.211393743,0.498905787,-1.834872108,2.800599468,1.513347528,-0.002420431
1.034000000,-0.211394678,0.498904334,-1.835407920,2.801515200,1.513309715,-0.001548387
1.036000000,-0.211395570,0.498902849,-1.835942706,2.802431318,1.513273193,-0.000990325
1.038000000,-0.211396400,0.498901317,-1.836476461,2.803347746,1.513237540,-0.000633238
1.040000000,-0.211397178,0.498899746,-1.837009197,2.804264414,1.513202105,-0.000404816
1.042000000,-0.211397924,0.498898153,-1.837540931,2.805181252,1.513166354,-0.000258806
1.044000000,-0.211398653,0.498896550,-1.838071676,2.806098191,1.513130023,-0.000165642
1.046000000,-0.211399376,0.498894945,-1.838601441,2.807015163,1.513093110,-0.000106465
1.048000000,-0.211400099,0.498893341,-1.839130232,2.807932102,1.513055783,-0.000069306
1.051000000,-0.211401185,0.498890942,-1.839921600,2.809307307,1.512999499,-0.000039252
1.052000000,-0.211401548,0.498890145,-1.840184904,2.809765624,1.512980754,-0.000033919
1.054000000,-0.211402277,0.498888553,-1.840710787,2.810682095,1.512943370,-0.000028387
1.056000000,-0.211404675,0.498888558,-1.841235669,2.811607893,1.512903175,-0.014258584
1.058000000,-0.211403590,0.498885110,-1.841759335,2.812519357,1.512871632,-0.009124765
1.060000000,-0.211404096,0.498883492,-1.842282269,2.813431375,1.512834851,-0.005839099
1.062000000,-0.211404776,0.498881885,-1.842804375,2.814344165,1.512795904,-0.003736289
1.064000000,-0.211405648,0.498880419,-1.843325561,2.815257475,1.512756628,-0.002390508
1.066000000,-0.211406564,0.498878988,-1.843845742,2.816171182,1.512718333,-0.001529238
1.068000000,-0.211407438,0.498877525,-1.844364876,2.817085205,1.512681302,-0.000978073
1.070000000,-0.211408252,0.498876016,-1.844882955,2.817999473,1.512645122,-0.000625400
1.072000000,-0.211409016,0.498874471,-1.845399987,2.818913925,1.512609161,-0.000399806
1.074000000,-0.211409748,0.498872904,-1.845915985,2.819828505,1.512572900,-0.000255607
1.076000000,-0.211410466,0.498871328,-1.846430960,2.820743157,1.512536084,-0.000163607
1.078000000,-0.211411178,0.498869750,-1.846944917,2.821657825,1.512498710,-0.000105182
1.080000000,-0.211411890,0.498868174,-1.847457862,2.822572455,1.512460937,-0.000068514
1.082000000,-0.211412603,0.498866602,-1.847969797,2.823486993,1.512422981,-0.000046195
1.084000000,-0.211413320,0.498865035,-1.848480722,2.824401388,1.512385027,-0.000033696
1.086000000,-0.211414039,0.498863472,-1.848990640,2.825315594,1.512347191,-0.000028347
1.088000000,-0.211416398,0.498863481,-1.849499525,2.826239087,1.512306709,-0.014076937
1.090000000,-0.211415326,0.498860080,-1.850007155,2.827148373,1.512274442,-0.009008512
1.092000000,-0.211415840,0.498858505,-1.850514025,2.828058231,1.512237109,-0.005764699
1.094000000,-0.211416515,0.498856929,-1.851020034,2.828968876,1.512197692,-0.003688674
1.096000000,-0.211417375,0.498855489,-1.851525100,2.829880048,1.512157961,-0.002360037
1.098000000,-0.211418278,0.498854084,-1.852029143,2.830791618,1.512119171,-0.001509739
1.100000000,-0.211419140,0.498852647,-1.852532130,2.831703494,1.512081577,-0.000965596
1.102000000,-0.211419943,0.498851165,-1.853034058,2.832615594,1.512044764,-0.000617420
1.104000000,-0.211420698,0.498849649,-1.853534942,2.833527847,1.512008114,-0.000394704
1.106000000,-0.211421422,0.498848111,-1.854034799,2.834440185,1.511971127,-0.000252351
1.108000000,-0.211422132,0.498846565,-1.854533646,2.835352544,1.511933559,-0.000161536
1.110000000,-0.211422838,0.498845017,-1.855031493,2.836264861,1.511895412,-0.000103878
1.112000000,-0.211423542,0.498843471,-1.855528350,2.837177079,1.511856847,-0.000067711
1.114000000,-0.211424249,0.498841929,-1.856024224,2.838089143,1.511818075,-0.000045731
1.116000000,-0.211424957,0.498840390,-1.856519123,2.839001007,1.511779286,-0.000033473
1.118000000,-0.211425669,0.498838857,-1.857013051,2.839912636,1.511740598,-0.000028310
1.120000000,-0.211427990,0.498838871,-1.857505990,2.840833453,1.511699433,-0.013891644
1.122000000,-0.211426935,0.498835519,-1.857997717,2.841740153,1.511666057,-0.008889926
1.124000000,-0.211427457,0.498833985,-1.858488731,2.842647421,1.511627802,-0.005688805
1.126000000,-0.211428126,0.498832440,-1.858978926,2.843555485,1.511587561,-0.003640104
1.128000000,-0.211428974,0.498831026,-1.859468224,2.844464103,1.511547035,-0.002328954
1.130000000,-0.211429863,0.498829645,-1.859956549,2.845373157,1.511507431,-0.001489849
1.132000000,-0.211430710,0.498828231,-1.860443866,2.846282564,1.511468982,-0.000952870
1.134000000,-0.211431500,0.498826775,-1.860930173,2.847192249,1.511431284,-0.000609280
1.136000000,-0.211432243,0.498825284,-1.861415481,2.848102143,1.511393735,-0.000389502
1.138000000,-0.211432956,0.498823772,-1.861899804,2.849012175,1.511355858,-0.000249031
1.140000000,-0.211433655,0.498822252,-1.862383152,2.849922276,1.511317421,-0.000159426
1.142000000,-0.211434348,0.498820730,-1.862865533,2.850832375,1.511278434,-0.000102549
1.144000000,-0.211435041,0.498819209,-1.863346950,2.851742402,1.511239056,-0.000066895
1.146000000,-0.211435735,0.498817692,-1.863827404,2.852652290,1.511199493,-0.000045260
1.148000000,-0.211436430,0.498816178,-1.864306893,2.853561975,1.511159925,-0.000033250
1.150000000,-0.211437128,0.498814669,-1.864785416,2.854471400,1.511120457,-0.000028278
1.152000000,-0.211439405,0.498814682,-1.865262948,2.855389896,1.511078682,-0.013702647
1.154000000,-0.211438360,0.498811375,-1.865739254,2.856294314,1.511044268,-0.008768971
1.156000000,-0.211438884,0.498809876,-1.866214825,2.857199205,1.511005155,-0.005611396
1.158000000,-0.211439541,0.498808356,-1.866689541,2.858104780,1.510964147,-0.003590565
1.160000000,-0.211440372,0.498806963,-1.867163318,2.859010785,1.510922881,-0.002297252
1.162000000,-0.211441240,0.498805601,-1.867636076,2.859917094,1.510882515,-0.001469564
1.164000000,-0.211442070,0.498804208,-1.868107775,2.860823623,1.510843262,-0.000939892
1.166000000,-0.211442844,0.498802774,-1.868578407,2.861730306,1.510804716,-0.000600980
1.168000000,-0.211443573,0.498801306,-1.869047980,2.862637085,1.510766294,-0.000384197
1.170000000,-0.211444275,0.498799820,-1.869516504,2.863543911,1.510727531,-0.000245647
1.172000000,-0.211444963,0.498798326,-1.869983987,2.864450734,1.510688213,-0.000157276
1.174000000,-0.211445647,0.498796831,-1.870450435,2.865357508,1.510648353,-0.000101197
1.176000000,-0.211446331,0.498795338,-1.870915849,2.866264188,1.510608112,-0.000066066
1.178000000,-0.211447016,0.498793848,-1.871380231,2.867170729,1.510567692,-0.000044784
1.182000000,-0.211448394,0.498790881,-1.872305897,2.868983225,1.510486943,-0.000028251
1.183000000,-0.211448740,0.498790142,-1.872536668,2.869436198,1.510466831,0.000028004
1.184000000,-0.211450630,0.498790896,-1.872767162,2.869898411,1.510444486,-0.013509980
1.186000000,-0.211449605,0.498787640,-1.873227144,2.870799688,1.510408975,-0.008645667
1.188000000,-0.211450138,0.498786182,-1.873686335,2.871701492,1.510368963,-0.005532485
1.190000000,-0.211450791,0.498784692,-1.874144616,2.872604034,1.510327159,-0.003540065
1.192000000,-0.211451611,0.498783325,-1.874601914,2.873507054,1.510285139,-0.002264936
1.194000000,-0.211452468,0.498781988,-1.875058156,2.874410423,1.510244011,-0.001448886
1.196000000,-0.211453286,0.498780620,-1.875513307,2.875314048,1.510203979,-0.000926663
1.198000000,-0.211454050,0.498779211,-1.875967365,2.876217848,1.510164653,-0.000592520
1.200000000,-0.211454771,0.498777771,-1.876420340,2.877121750,1.510125472,-0.000378791
1.202000000,-0.211455464,0.498776312,-1.876872243,2.878025686,1.510085992,-0.000242199
1.204000000,-0.211456145,0.498774846,-1.877323087,2.878929592,1.510046007,-0.000155087
1.206000000,-0.211456821,0.498773378,-1.877772878,2.879833406,1.510005534,-0.000099821
1.208000000,-0.211457497,0.498771912,-1.878221619,2.880737069,1.509964726,-0.000065223
1.210000000,-0.211458174,0.498770450,-1.878669314,2.881640525,1.509923780,-0.000044303
1.212000000,-0.211458854,0.498768992,-1.879115963,2.882543724,1.509882863,-0.000032805
1.214000000,-0.211459536,0.498767537,-1.879561568,2.883446629,1.509842075,-0.000028229
1.216000000,-0.211461731,0.498767553,-1.880006112,2.884358443,1.509799350,-0.013313655
1.218000000,-0.211460725,0.498764347,-1.880449361,2.885256403,1.509763177,-0.008520022
1.220000000,-0.211461266,0.498762928,-1.880891809,2.886154839,1.509722710,-0.005452076
1.222000000,-0.211461914,0.498761468,-1.881333332,2.887053973,1.509680559,-0.003488607
1.224000000,-0.211462723,0.498760125,-1.881773861,2.887953564,1.509638227,-0.002232008
1.226000000,-0.211463567,0.498758810,-1.882213327,2.888853497,1.509596767,-0.001427817
1.228000000,-0.211464373,0.498757467,-1.882651699,2.889753694,1.509556361,-0.000913185
1.230000000,-0.211465127,0.498756083,-1.883088976,2.890654087,1.509516624,-0.000583901
1.232000000,-0.211465839,0.498754670,-1.883525168,2.891554613,1.509477007,-0.000373285
1.234000000,-0.211466525,0.498753238,-1.883960291,2.892455212,1.509437080,-0.000238689
1.236000000,-0.211467199,0.498751799,-1.884394358,2.893355821,1.509396644,-0.000152859
1.238000000,-0.211467868,0.498750360,-1.884827378,2.894256379,1.509355712,-0.000098422
1.240000000,-0.211468538,0.498748922,-1.885259359,2.895156823,1.509314433,-0.000064369
1.242000000,-0.211469209,0.498747488,-1.885690305,2.896057092,1.509272992,-0.000043818
1.244000000,-0.211469882,0.498746058,-1.886120223,2.896957130,1.509231547,-0.000032584
1.246000000,-0.211470558,0.498744631,-1.886549116,2.897856884,1.509190191,-0.000028213
1.248000000,-0.211472713,0.498744646,-1.886976974,2.898765467,1.509147026,-0.013113653
1.250000000,-0.211471729,0.498741493,-1.887403568,2.899660297,1.509109963,-0.008392025
1.252000000,-0.211472279,0.498740113,-1.887829390,2.900555560,1.509068759,-0.005370162
1.254000000,-0.211472922,0.498738682,-1.888254316,2.901451466,1.509025929,-0.003436187
1.256000000,-0.211473720,0.498737363,-1.888678284,2.902347764,1.508982912,-0.002198465
1.258000000,-0.211474551,0.498736071,-1.889101231,2.903244331,1.508940712,-0.001406355
1.260000000,-0.211475346,0.498734751,-1.889523128,2.904141086,1.508899497,-0.000899457
1.262000000,-0.211476090,0.498733393,-1.889943978,2.905037966,1.508858887,-0.000575124
1.264000000,-0.211476793,0.498732005,-1.890363793,2.905934923,1.508818356,-0.000367678
1.266000000,-0.211477472,0.498730600,-1.890782590,2.906831916,1.508777495,-0.000235114
1.268000000,-0.211478139,0.498729188,-1.891200382,2.907728906,1.508736121,-0.000150591
1.270000000,-0.211478802,0.498727776,-1.891617177,2.908625853,1.508694254,-0.000097000
1.272000000,-0.211479464,0.498726365,-1.892032983,2.909522717,1.508652043,-0.000063502
1.274000000,-0.211480127,0.498724957,-1.892447802,2.910419456,1.508609672,-0.000043328
1.276000000,-0.211480792,0.498723553,-1.892861639,2.911316028,1.508567296,-0.000032365
1.278000000,-0.211481459,0.498722152,-1.893274494,2.912212389,1.508525007,-0.000028204
1.280000000,-0.211483571,0.498722164,-1.893686358,2.913117574,1.508481079,-0.012909579
1.282000000,-0.211482608,0.498719062,-1.894096995,2.914009201,1.508442853,-0.008261423
1.284000000,-0.211483163,0.498717717,-1.894506893,2.914901315,1.508400687,-0.005286582
1.286000000,-0.211483798,0.498716312,-1.894915915,2.915794112,1.508357006,-0.003382702
1.288000000,-0.211484581,0.498715014,-1.895324000,2.916687323,1.508313184,-0.002164240
1.290000000,-0.211485396,0.498713741,-1.895731081,2.917580805,1.508270183,-0.001384458
1.292000000,-0.211486174,0.498712440,-1.896137124,2.918474455,1.508228157,-0.000885451
1.294000000,-0.211486903,0.498711102,-1.896542123,2.919368182,1.508186740,-0.000566169
1.296000000,-0.211487593,0.498709736,-1.896946084,2.920261904,1.508145426,-0.000361959
1.298000000,-0.211488259,0.498708353,-1.897349013,2.921155547,1.508103823,-0.000231470
1.300000000,-0.211488913,0.498706963,-1.897750915,2.922049038,1.508061754,-0.000148281
1.302000000,-0.211489563,0.498705573,-1.898151790,2.922942311,1.508019242,-0.000095553
1.304000000,-0.211490214,0.498704185,-1.898551635,2.923835301,1.507976432,-0.000062622
1.306000000,-0.211490865,0.498702800,-1.898950447,2.924727949,1.507933502,-0.000042833
1.308000000,-0.211491518,0.498701418,-1.899348220,2.925620203,1.507890600,-0.000032147
1.310000000,-0.211492173,0.498700039,-1.899744949,2.926512018,1.507847815,-0.000028201
1.312000000,-0.211494239,0.498700045,-1.900140620,2.927412359,1.507803584,-0.012701378
1.314000000,-0.211493297,0.498696995,-1.900534996,2.928299072,1.507764678,-0.008128180
1.316000000,-0.211493858,0.498695685,-1.900928556,2.929186098,1.507722048,-0.005201313
1.318000000,-0.211494487,0.498694306,-1.901321159,2.930073668,1.507678014,-0.003328137
1.320000000,-0.211495258,0.498693031,-1.901712745,2.930961554,1.507633880,-0.002129325
1.322000000,-0.211496061,0.498691780,-1.902103250,2.931849657,1.507590552,-0.001362121
1.324000000,-0.211496828,0.498690502,-1.902492644,2.932737913,1.507548163,-0.000871164
1.326000000,-0.211497549,0.498689189,-1.902880920,2.933626270,1.507506348,-0.000557036
1.328000000,-0.211498232,0.498687849,-1.903268087,2.934514682,1.507464616,-0.000356127
1.330000000,-0.211498893,0.498686494,-1.903654154,2.935403100,1.507422585,-0.000227755
1.332000000,-0.211499543,0.498685132,-1.904039131,2.936291474,1.507380087,-0.000145927
1.334000000,-0.211500189,0.498683770,-1.904423022,2.937179751,1.507337141,-0.000094080
1.336000000,-0.211500836,0.498682410,-1.904805830,2.938067874,1.507293885,-0.000061728
1.338000000,-0.211501483,0.498681053,-1.905187558,2.938955786,1.507250487,-0.000042334
1.340000000,-0.211502133,0.498679699,-1.905568207,2.939843431,1.507207087,-0.000031932
1.342000000,-0.211502784,0.498678349,-1.905947777,2.940730755,1.507163764,-0.000028205
1.344000000,-0.211504810,0.498678352,-1.906326261,2.941626621,1.507119119,-0.012488983
1.346000000,-0.211503896,0.498675358,-1.906703428,2.942509068,1.507079362,-0.007992254
1.348000000,-0.211504466,0.498674086,-1.907079754,2.943391872,1.507036032,-0.005114328
1.350000000,-0.211505041,0.498672685,-1.907455081,2.944275242,1.506991498,-0.003272474
1.352000000,-0.211505212,0.498670883,-1.907829164,2.945158944,1.506948469,-0.002093718
1.354000000,-0.211504714,0.498668531,-1.908201833,2.946042776,1.506907733,-0.001339357
1.356000000,-0.211503565,0.498665664,-1.908573111,2.946926616,1.506867787,-0.000856628
1.358000000,-0.211501923,0.498662409,-1.908943107,2.947810398,1.506826756,-0.000547775
1.360000000,-0.211499970,0.498658910,-1.909311937,2.948694099,1.506783579,-0.000350248
1.362000000,-0.211497848,0.498655277,-1.909679693,2.949577716,1.506738283,-0.000224045
1.364000000,-0.211495648,0.498651583,-1.910046430,2.950461252,1.506691647,-0.000143605
1.366000000,-0.211493421,0.498647868,-1.910412181,2.951344706,1.506644690,-0.000092637
1.368000000,-0.211491192,0.498644153,-1.910776964,2.952228064,1.506598254,-0.000060822
1.370000000,-0.211488975,0.498640448,-1.911140786,2.953111295,1.506552803,-0.000041713
1.372000000,-0.211486773,0.498636758,-1.911503650,2.953994359,1.506508398,-0.000031388
1.374000000,-0.211484585,0.498633082,-1.911865555,2.954877205,1.506464809,-0.000027539
1.376000000,-0.211483743,0.498630736,-1.912226490,2.955768601,1.506420405,-0.012273551
1.378000000,-0.211480007,0.498625445,-1.912586201,2.956646787,1.506380604,-0.007854506
1.380000000,-0.211477810,0.498621906,-1.912945221,2.957525404,1.506336781,-0.005026305
1.382000000,-0.211475620,0.498618250,-1.913303337,2.958404629,1.506291638,-0.003216284
1.387000000,-0.211470363,0.498609284,-1.914194326,2.960603823,1.506179393,-0.001053015
1.388000000,-0.211469286,0.498607474,-1.914371752,2.961043737,1.506157391,-0.000842187
1.389000000,-0.211468199,0.498605657,-1.914548920,2.961483650,1.506135476,-0.000673548
1.390000000,-0.211467102,0.498603833,-1.914725831,2.961923552,1.506113603,-0.000538665
1.392000000,-0.211464888,0.498600174,-1.915078882,2.962803289,1.506069816,-0.000344543
1.394000000,-0.211462656,0.498596505,-1.915430912,2.963682878,1.506025794,-0.000220505
1.396000000,-0.211460415,0.498592832,-1.915781922,2.964562252,1.505981450,-0.000141427
1.398000000,-0.211458166,0.498589159,-1.916131911,2.965441351,1.505936816,-0.000091294
1.400000000,-0.211455913,0.498585486,-1.916480876,2.966320116,1.505891989,-0.000059951
1.402000000,-0.211453655,0.498581814,-1.916828815,2.967198494,1.505847072,-0.000041038
1.404000000,-0.211451393,0.498578142,-1.917175724,2.968076438,1.505802147,-0.000030664
1.406000000,-0.211449126,0.498574472,-1.917521600,2.968953909,1.505757256,-0.000026525
1.408000000,-0.211448155,0.498572090,-1.917866434,2.969839606,1.505711303,-0.012054600
1.410000000,-0.211444356,0.498566823,-1.918209982,2.970712042,1.505669510,-0.007714526
1.412000000,-0.211442069,0.498563279,-1.918552770,2.971584753,1.505624100,-0.004936867
1.414000000,-0.211439780,0.498559616,-1.918894588,2.972457964,1.505577765,-0.003159192
1.416000000,-0.211437589,0.498556026,-1.919235392,2.973331446,1.505531561,-0.002021508
1.418000000,-0.211435402,0.498552443,-1.919575129,2.974205106,1.505486137,-0.001293430
1.420000000,-0.211433179,0.498548835,-1.919913782,2.975078881,1.505441448,-0.000827516
1.422000000,-0.211430920,0.498545204,-1.920251354,2.975952724,1.505397114,-0.000529413
1.424000000,-0.211428635,0.498541557,-1.920587853,2.976826587,1.505352730,-0.000338750
1.426000000,-0.211426334,0.498537902,-1.920923283,2.977700422,1.505308032,-0.000216912
1.428000000,-0.211424025,0.498534245,-1.921257650,2.978574175,1.505262933,-0.000139221
1.430000000,-0.211421709,0.498530588,-1.921590953,2.979447786,1.505217482,-0.000089939
1.432000000,-0.211419388,0.498526931,-1.921923192,2.980321192,1.505171799,-0.000059078
1.434000000,-0.211417064,0.498523274,-1.922254367,2.981194330,1.505126004,-0.000040370
1.436000000,-0.211414748,0.498519622,-1.922584485,2.982067138,1.505080136,-0.000029958
1.438000000,-0.211412456,0.498515989,-1.922913549,2.982939554,1.505034250,-0.000025540
1.440000000,-0.211411422,0.498513623,-1.923241520,2.983820147,1.504987747,-0.011831306
1.442000000,-0.211407553,0.498508375,-1.923568125,2.984687618,1.504945273,-0.007571769
1.444000000,-0.211405163,0.498504822,-1.923893913,2.985555334,1.504899370,-0.004845653
1.446000000,-0.211402693,0.498501097,-1.924218638,2.986423459,1.504852680,-0.003100963
1.448000000,-0.211400263,0.498497402,-1.924542271,2.987291743,1.504805981,-0.001984388
1.450000000,-0.211397807,0.498493690,-1.924864773,2.988160068,1.504759770,-0.001269817
1.452000000,-0.211395301,0.498489946,-1.925186135,2.989028357,1.504714019,-0.000812544
1.454000000,-0.211392758,0.498486176,-1.925506359,2.989896553,1.504668466,-0.000519966
1.456000000,-0.211390191,0.498482392,-1.925825452,2.990764608,1.504622850,-0.000332829
1.458000000,-0.211387616,0.498478607,-1.926143419,2.991632484,1.504577004,-0.000213233
1.462000000,-0.211382457,0.498471043,-1.926775974,2.993367560,1.504484579,-0.000088534
1.463000000,-0.211381166,0.498469153,-1.926933407,2.993801162,1.504461368,-0.000071546
1.464000000,-0.211379874,0.498467264,-1.927090558,2.994234690,1.504438137,-0.000058162
1.466000000,-0.211377288,0.498463487,-1.927404011,2.995101502,1.504391628,-0.000039661
1.468000000,-0.211374712,0.498459718,-1.927716341,2.995967965,1.504345014,-0.000029213
1.470000000,-0.211372166,0.498455975,-1.928027557,2.996834053,1.504298309,-0.000024518
1.472000000,-0.211369651,0.498452258,-1.928337657,2.997699736,1.504251605,0.000024270
1.474000000,-0.211367055,0.498448309,-1.928646400,2.998571544,1.504206448,-0.009273193
1.476000000,-0.211364460,0.498444666,-1.928954225,2.999432673,1.504160126,-0.005934710
1.478000000,-0.211361954,0.498441010,-1.929260989,3.000294371,1.504112562,-0.003798101
1.480000000,-0.211359523,0.498437373,-1.929566663,3.001156419,1.504064782,-0.002430695
1.482000000,-0.211357131,0.498433771,-1.929871194,3.002018638,1.504017565,-0.001555586
1.484000000,-0.211354712,0.498430150,-1.930174557,3.002880927,1.503971079,-0.000995557
1.486000000,-0.211352251,0.498426501,-1.930476752,3.003743205,1.503925038,-0.000637197
1.488000000,-0.211349757,0.498422831,-1.930777789,3.004605402,1.503879050,-0.000407934
1.490000000,-0.211347240,0.498419147,-1.931077682,3.005467453,1.503832818,-0.000261334
1.492000000,-0.211344707,0.498415454,-1.931376440,3.006329296,1.503786217,-0.000167704
1.494000000,-0.211342163,0.498411758,-1.931674073,3.007190869,1.503739272,-0.000108076
1.496000000,-0.211339610,0.498408058,-1.931970588,3.008052111,1.503692091,-0.000070364
1.498000000,-0.211337050,0.498404356,-1.932265992,3.008912966,1.503644807,-0.000046912
1.500000000,-0.211334481,0.498400653,-1.932560291,3.009773379,1.503597532,-0.000032922
1.502000000,-0.211331907,0.498396949,-1.932853492,3.010633301,1.503550332,-0.000025439
1.504000000,-0.211329327,0.498393244,-1.933145601,3.011492694,1.503503229,-0.000022701
1.506000000,-0.211327921,0.498390729,-1.933436614,3.012359951,1.503455636,-0.011351890
1.508000000,-0.211323917,0.498385525,-1.933726321,3.013214353,1.503410979,-0.007265258
1.510000000,-0.211321363,0.498381978,-1.934015223,3.014068948,1.503363304,-0.004649801
1.512000000,-0.211318777,0.498378293,-1.934303107,3.014923964,1.503315014,-0.002975933
1.514000000,-0.211316272,0.498374669,-1.934589945,3.015779182,1.503266965,-0.001904682
1.516000000,-0.211313768,0.498371050,-1.934875700,3.016634512,1.503219666,-0.001219114
1.518000000,-0.211311231,0.498367408,-1.935160360,3.017489898,1.503173027,-0.000780397
1.520000000,-0.211308661,0.498363744,-1.935443934,3.018345294,1.503126685,-0.000499684
1.522000000,-0.211306067,0.498360067,-1.935726431,3.019200653,1.503080273,-0.000320125
1.524000000,-0.211303458,0.498356382,-1.936007860,3.020055926,1.503033560,-0.000205351
1.526000000,-0.211300839,0.498352693,-1.936288228,3.020911055,1.502986478,-0.000132113
1.528000000,-0.211298212,0.498349003,-1.936567537,3.021765978,1.502939077,-0.000085569
1.530000000,-0.211295579,0.498345313,-1.936845791,3.022620626,1.502891465,-0.000056278
1.532000000,-0.211292941,0.498341622,-1.937122991,3.023474927,1.502843758,-0.000038271
1.534000000,-0.211290298,0.498337931,-1.937399137,3.024328810,1.502796040,-0.000027822
1.536000000,-0.211287650,0.498334242,-1.937674230,3.025182205,1.502748354,-0.000022643
1.538000000,-0.211284999,0.498330554,-1.937948268,3.026035053,1.502700703,0.000021391
1.540000000,-0.211282222,0.498326605,-1.938221028,3.026893690,1.502654492,-0.008885740
1.542000000,-0.211279487,0.498322986,-1.938492942,3.027741712,1.502606819,-0.005687068
1.544000000,-0.211276805,0.498319328,-1.938763853,3.028590073,1.502557998,-0.003639937
1.546000000,-0.211274183,0.498315679,-1.939033740,3.029438549,1.502508933,-0.002329796
1.548000000,-0.211271598,0.498312064,-1.939302555,3.030286968,1.502460342,-0.001491332
1.550000000,-0.211268990,0.498308434,-1.939570268,3.031135240,1.502412393,-0.000954752
1.552000000,-0.211266349,0.498304781,-1.939836873,3.031983295,1.502364832,-0.000611391
1.554000000,-0.211263681,0.498301113,-1.940102373,3.032831082,1.502317293,-0.000391714
1.556000000,-0.211260998,0.498297437,-1.940366775,3.033678561,1.502269493,-0.000251228
1.558000000,-0.211258308,0.498293760,-1.940630081,3.034525698,1.502221314,-0.000161477
1.560000000,-0.211255611,0.498290082,-1.940892294,3.035372465,1.502172776,-0.000104276
1.562000000,-0.211252909,0.498286403,-1.941153411,3.036218834,1.502123978,-0.000068029
1.564000000,-0.211250200,0.498282725,-1.941413433,3.037064779,1.502075037,-0.000045366
1.566000000,-0.211247486,0.498279046,-1.941672358,3.037910274,1.502026048,-0.000031642
1.568000000,-0.211244767,0.498275367,-1.941930184,3.038755295,1.501977069,-0.000023958
1.570000000,-0.211242042,0.498271687,-1.942186911,3.039599821,1.501928117,-0.000020538
1.572000000,-0.211239313,0.498268008,-1.942442537,3.040443834,1.501879182,0.000020383
1.574000000,-0.211236446,0.498264064,-1.942696843,3.041293620,1.501831652,-0.008676652
1.576000000,-0.211233647,0.498260462,-1.942950255,3.042133041,1.501782578,-0.005553426
1.578000000,-0.211230885,0.498256810,-1.943202610,3.042972912,1.501732474,-0.003554580
1.580000000,-0.211228173,0.498253161,-1.943453892,3.043813031,1.501682181,-0.002275339
1.582000000,-0.211225493,0.498249542,-1.943704058,3.044653235,1.501632372,-0.001456651
1.584000000,-0.211222791,0.498245907,-1.943953082,3.045493435,1.501583209,-0.000932724
1.586000000,-0.211220054,0.498242250,-1.944200959,3.046333558,1.501534455,-0.000597458
1.588000000,-0.211217289,0.498238575,-1.944447691,3.047173541,1.501485770,-0.000382955
1.590000000,-0.211214505,0.498234889,-1.944693282,3.048013325,1.501436888,-0.000245770
1.592000000,-0.211211709,0.498231198,-1.944937735,3.048852849,1.501387685,-0.000158115
1.594000000,-0.211208902,0.498227502,-1.945181049,3.049692055,1.501338168,-0.000102230
1.596000000,-0.211206086,0.498223805,-1.945423221,3.050530885,1.501288419,-0.000066782
1.598000000,-0.211203263,0.498220105,-1.945664249,3.051369283,1.501238548,-0.000044561
1.600000000,-0.211200433,0.498216403,-1.945904129,3.052207197,1.501188653,-0.000031010
1.604000000,-0.211194757,0.498209000,-1.946380435,3.053881403,1.501088979,-0.000019548
1.605000000,-0.211193335,0.498207150,-1.946498790,3.054299598,1.501064082,-0.000018857
1.606000000,-0.211191914,0.498205301,-1.946616856,3.054717647,1.501039187,0.000018835
1.608000000,-0.211188929,0.498201338,-1.946851910,3.055559514,1.500990785,-0.008466264
1.610000000,-0.211186041,0.498197731,-1.947086012,3.056391119,1.500940776,-0.005418956
1.612000000,-0.211183178,0.498194070,-1.947318997,3.057223136,1.500889852,-0.003468696
1.614000000,-0.211180362,0.498190408,-1.947550853,3.058055383,1.500838777,-0.002220550
1.616000000,-0.211177579,0.498186777,-1.947781543,3.058887720,1.500788169,-0.001421761
1.618000000,-0.211174777,0.498183134,-1.948011042,3.059720074,1.500738169,-0.000910568
1.621000000,-0.211170521,0.498177636,-1.948353059,3.060968513,1.500663778,-0.000467160
1.622000000,-0.211169091,0.498175797,-1.948466473,3.061384607,1.500638985,-0.000374150
1.624000000,-0.211166220,0.498172112,-1.948692419,3.062216674,1.500589225,-0.000240287
1.626000000,-0.211163339,0.498168425,-1.948917194,3.063048524,1.500539156,-0.000154743
1.628000000,-0.211160451,0.498164736,-1.949140804,3.063880090,1.500488784,-0.000100184
1.630000000,-0.211157558,0.498161047,-1.949363252,3.064711298,1.500438190,-0.000065544
1.632000000,-0.211154660,0.498157359,-1.949584542,3.065542070,1.500387479,-0.000043777
1.634000000,-0.211151758,0.498153671,-1.949804679,3.066372331,1.500336745,-0.000030413
1.636000000,-0.211148852,0.498149985,-1.950023666,3.067202010,1.500286045,-0.000022631
1.638000000,-0.211145943,0.498146301,-1.950241509,3.068031041,1.500235403,-0.000018661
1.640000000,-0.211143032,0.498142619,-1.950458212,3.068859370,1.500184814,0.000017449
1.642000000,-0.211139973,0.498138670,-1.950673574,3.069693063,1.500135637,-0.008251103
1.644000000,-0.211137032,0.498135089,-1.950888012,3.070516452,1.500084836,-0.005281433
1.646000000,-0.211134103,0.498131445,-1.951101359,3.071340008,1.500033273,-0.003380861
1.648000000,-0.211131214,0.498127797,-1.951313615,3.072163529,1.499981633,-0.002164515
1.650000000,-0.211128357,0.498124178,-1.951524751,3.072986858,1.499930478,-0.001386076
1.652000000,-0.211125483,0.498120550,-1.951734751,3.073809922,1.499879930,-0.000887904
1.654000000,-0.211122585,0.498116906,-1.951943618,3.074632678,1.499829769,-0.000569114
1.656000000,-0.211119666,0.498113250,-1.952151360,3.075455100,1.499779701,-0.000365142
1.658000000,-0.211116733,0.498109587,-1.952357988,3.076277173,1.499729494,-0.000234679
1.660000000,-0.211113789,0.498105920,-1.952563508,3.077098881,1.499679038,-0.000151295
1.662000000,-0.211110836,0.498102250,-1.952767925,3.077920208,1.499628331,-0.000098096
1.664000000,-0.211107874,0.498098578,-1.952971242,3.078741132,1.499577434,-0.000064289
1.666000000,-0.211104905,0.498094903,-1.953173462,3.079561630,1.499526431,-0.000042997
1.668000000,-0.211101927,0.498091226,-1.953374589,3.080381671,1.499475397,-0.000029846
1.670000000,-0.211098942,0.498087547,-1.953574624,3.081201223,1.499424379,-0.000022062
1.672000000,-0.211095951,0.498083867,-1.953773569,3.082020249,1.499373390,-0.000017886
1.674000000,-0.211092952,0.498080185,-1.953971424,3.082838717,1.499322423,-0.000016247
1.676000000,-0.211090915,0.498077503,-1.954168180,3.083664387,1.499271555,-0.010027743
1.678000000,-0.211086711,0.498072527,-1.954363662,3.084478070,1.499221821,-0.006418688
1.680000000,-0.211083760,0.498069005,-1.954558277,3.085291788,1.499169998,-0.004108881
1.682000000,-0.211080727,0.498065318,-1.954751824,3.086105725,1.499117835,-0.002630625
1.684000000,-0.211077748,0.498061672,-1.954944295,3.086919637,1.499065864,-0.001684561
1.686000000,-0.211074766,0.498058026,-1.955135656,3.087733409,1.499014416,-0.001079103
1.688000000,-0.211071755,0.498054361,-1.955325896,3.088546955,1.498963400,-0.000691642
1.690000000,-0.211068716,0.498050678,-1.955515014,3.089360206,1.498912533,-0.000443708
1.692000000,-0.211065655,0.498046982,-1.955703014,3.090173101,1.498861541,-0.000285089
1.694000000,-0.211062578,0.498043278,-1.955889897,3.090985584,1.498810256,-0.000183656
1.696000000,-0.211059490,0.498039569,-1.956075662,3.091797599,1.498758630,-0.000118858
1.698000000,-0.211056391,0.498035855,-1.956260307,3.092609093,1.498706706,-0.000077560
1.700000000,-0.211053284,0.498032139,-1.956443829,3.093420017,1.498654565,-0.000051375
1.702000000,-0.211050174,0.498028426,-1.956626228,3.094230328,1.498602284,-0.000034957
1.704000000,-0.211047065,0.498024717,-1.956807503,3.095039998,1.498549940,-0.000024898
1.706000000,-0.211043955,0.498021012,-1.956987653,3.095849006,1.498497592,-0.000019026
1.708000000,-0.211040844,0.498017310,-1.957166675,3.096657340,1.498445265,-0.000015959
1.710000000,-0.211037730,0.498013610,-1.957344565,3.097464994,1.498392953,-0.000014870
1.712000000,-0.211035536,0.498010871,-1.957521311,3.098279613,1.498340850,-0.009727829
1.714000000,-0.211031274,0.498005931,-1.957696746,3.099082422,1.498289549,-0.006226939
1.716000000,-0.211028222,0.498002398,-1.957871256,3.099885241,1.498236341,-0.003986359
1.718000000,-0.211025083,0.497998701,-1.958044645,3.100688284,1.498182841,-0.002552407
1.720000000,-0.211021996,0.497995041,-1.958216906,3.101491342,1.498129526,-0.001634696
1.722000000,-0.211018906,0.497991384,-1.958388011,3.102294322,1.498076697,-0.001047384
1.724000000,-0.211015791,0.497987710,-1.958557949,3.103097156,1.498024272,-0.000671532
1.726000000,-0.211012652,0.497984021,-1.958726722,3.103899783,1.497971993,-0.000431025
1.728000000,-0.211009493,0.497980321,-1.958894332,3.104702141,1.497919613,-0.000277152
1.730000000,-0.211006322,0.497976615,-1.959060784,3.105504163,1.497866983,-0.000178746
1.732000000,-0.211003140,0.497972905,-1.959226078,3.106305781,1.497814067,-0.000115870
1.734000000,-0.210999950,0.497969192,-1.959390214,3.107106922,1.497760911,-0.000075777
1.736000000,-0.210996752,0.497965477,-1.959553192,3.107907512,1.497707600,-0.000050324
1.738000000,-0.210993548,0.497961761,-1.959715012,3.108707480,1.497654221,-0.000034314
1.740000000,-0.210990337,0.497958045,-1.959875672,3.109506757,1.497600839,-0.000024428
1.742000000,-0.210987121,0.497954327,-1.960035170,3.110305286,1.497547488,-0.000018537
1.744000000,-0.210983899,0.497950610,-1.960193507,3.111103016,1.497494173,-0.000015276
1.746000000,-0.210980672,0.497946892,-1.960350681,3.111899911,1.497440881,-0.000013798
1.748000000,-0.210977440,0.497943175,-1.960506689,3.112695947,1.497387589,0.000013646
1.750000000,-0.210974042,0.497939191,-1.960661349,3.113496885,1.497335584,-0.007530961
1.752000000,-0.210970822,0.497935597,-1.960815041,3.114287985,1.497281773,-0.004821132
1.754000000,-0.210967578,0.497931917,-1.960967586,3.115079171,1.497227488,-0.003086857
1.756000000,-0.210964353,0.497928222,-1.961118991,3.115870295,1.497173204,-0.001976938
1.758000000,-0.210961154,0.497924551,-1.961269234,3.116661252,1.497119333,-0.001266609
1.760000000,-0.210957939,0.497920871,-1.961418297,3.117452006,1.497065944,-0.000812021
1.762000000,-0.210954701,0.497917177,-1.961566182,3.118242532,1.497012838,-0.000521115
1.764000000,-0.210951444,0.497913471,-1.961712892,3.119032805,1.496959748,-0.000334975
1.766000000,-0.210948172,0.497909758,-1.961858433,3.119822796,1.496906474,-0.000215899
1.768000000,-0.210944890,0.497906041,-1.962002809,3.120612468,1.496852924,-0.000139765
1.770000000,-0.210941599,0.497902322,-1.962146023,3.121401769,1.496799102,-0.000091147
1.772000000,-0.210938301,0.497898601,-1.962288077,3.122190643,1.496745073,-0.000060179
1.774000000,-0.210934996,0.497894879,-1.962428970,3.122979020,1.496690918,-0.000040559
1.776000000,-0.210931686,0.497891157,-1.962568706,3.123766832,1.496636710,-0.000028261
1.778000000,-0.210928370,0.497887434,-1.962707283,3.124554005,1.496582493,-0.000020701
1.780000000,-0.210925049,0.497883711,-1.962844703,3.125340472,1.496528283,-0.000016211
1.782000000,-0.210921723,0.497879988,-1.962980966,3.126126171,1.496474071,-0.000013719
1.784000000,-0.210918393,0.497876266,-1.963116070,3.126911052,1.496419836,-0.000012565
1.786000000,-0.210915058,0.497872545,-1.963250016,3.127695075,1.496365553,0.000012398
1.788000000,-0.210911555,0.497868560,-1.963382629,3.128483845,1.496312481,-0.007266233
1.790000000,-0.210908244,0.497864966,-1.963514271,3.129262944,1.496257529,-0.004651918
1.792000000,-0.210904896,0.497861280,-1.963644764,3.130042032,1.496202163,-0.002978772
1.794000000,-0.210901113,0.497857387,-1.963773751,3.130820791,1.496149792,-0.001907971
1.796000000,-0.210893410,0.497851020,-1.963899087,3.131598705,1.496115283,-0.001222668
1.798000000,-0.210880037,0.497840552,-1.964020243,3.132375773,1.496091996,-0.000784101
1.800000000,-0.210862082,0.497826725,-1.964138116,3.133151970,1.496062579,-0.000503453
1.802000000,-0.210841136,0.497810706,-1.964253799,3.133927440,1.496015592,-0.000323876
1.804000000,-0.210818451,0.497793418,-1.964368137,3.134702464,1.495949620,-0.000208988
1.806000000,-0.210794834,0.497775459,-1.964481676,3.135477366,1.495870629,-0.000135505
1.808000000,-0.210770762,0.497757181,-1.964594739,3.136252421,1.495787380,-0.000088526
1.810000000,-0.210746509,0.497738786,-1.964707517,3.137027784,1.495707598,-0.000058512
1.812000000,-0.210722232,0.497720391,-1.964820117,3.137803466,1.495635926,-0.000039357
1.814000000,-0.210698015,0.497702060,-1.964932589,3.138579340,1.495573555,-0.000027145
1.816000000,-0.210673892,0.497683816,-1.965044944,3.139355178,1.495518997,-0.000019362
1.818000000,-0.210649857,0.497665655,-1.965157162,3.140130697,1.495469329,-0.000014391
1.820000000,-0.210625879,0.497647557,-1.965269199,3.140905607,1.495421397,-0.000011191
1.822000000,-0.210601922,0.497629493,-1.965381001,3.141679643,1.495372679,-0.000009101
1.824000000,-0.210577951,0.497611436,-1.965492507,3.142452594,1.495321695,-0.000007712
1.826000000,-0.210553938,0.497593367,-1.965603657,3.143224310,1.495268018,-0.000006776
1.828000000,-0.210529872,0.497575277,-1.965714392,3.143994701,1.495212020,-0.000006151
1.830000000,-0.210505752,0.497557164,-1.965824656,3.144763737,1.495154511,-0.000005755
1.832000000,-0.210481585,0.497539034,-1.965934394,3.145531432,1.495096392,-0.000005537
1.834000000,-0.210457384,0.497520894,-1.966043552,3.146297835,1.495038406,-0.000005457
1.836000000,-0.210433160,0.497502750,-1.966152071,3.147063026,1.494981006,-0.000005481
1.838000000,-0.210408929,0.497484602,-1.966259899,3.147827109,1.494924356,-0.000005581
1.840000000,-0.210384713,0.497466420,-1.966367000,3.148590218,1.494868394,-0.000005740
1.842000000,-0.210360551,0.497448067,-1.966473403,3.149352507,1.494812836,-0.000005961
1.844000000,-0.210336374,0.497428997,-1.966579335,3.150113955,1.494757235,-0.000006216
1.846000000,-0.210311636,0.497409718,-1.966684606,3.150873933,1.494701004,-0.000006318
1.848000000,-0.210286604,0.497382163,-1.966786583,3.151636233,1.494644814,-0.000006880
1.850000000,-0.210259392,0.497326951,-1.966902649,3.152409737,1.494596988,-0.000006946
1.852000000,-0.210203427,0.497278299,-1.967024183,3.153173943,1.494609885,-0.000006235
1.854000000,-0.210081704,0.497234687,-1.967135222,3.153916073,1.494770835,-0.000004863
1.856000000,-0.209881878,0.497214649,-1.967205895,3.154643055,1.495022908,-0.008447607
1.858000000,-0.209613093,0.497189765,-1.967240283,3.155297824,1.495197006,-0.005408139
1.860000000,-0.209297532,0.497141999,-1.967250905,3.155887315,1.495212659,-0.003462809
1.862000000,-0.208944950,0.497060848,-1.967241080,3.156412081,1.495071885,-0.002217764
1.864000000,-0.208563586,0.496942812,-1.967213599,3.156884037,1.494826818,-0.001420908
1.866000000,-0.208159581,0.496785245,-1.967171586,3.157323593,1.494547089,-0.000910899
1.868000000,-0.207737796,0.496587306,-1.967118250,3.157755280,1.494291657,-0.000584479
1.870000000,-0.207302256,0.496349458,-1.967056827,3.158203943,1.494095083,-0.000375560
1.872000000,-0.206856329,0.496072789,-1.966990523,3.158692158,1.493966206,-0.000241847
1.874000000,-0.206402777,0.495758689,-1.966922380,3.159238441,1.493894394,-0.000156271
1.876000000,-0.205943777,0.495408690,-1.966855194,3.159856083,1.493858799,-0.000101507
1.878000000,-0.205480960,0.495024394,-1.966791472,3.160552550,1.493837174,-0.000066466
1.880000000,-0.205015473,0.494607430,-1.966733416,3.161329415,1.493812043,-0.000044053
1.882000000,-0.204548065,0.494159444,-1.966682930,3.162182723,1.493773484,-0.000029727
1.884000000,-0.204079187,0.493682100,-1.966641641,3.163103719,1.493718953,-0.000020579
1.886000000,-0.203609092,0.493177084,-1.966610924,3.164079837,1.493651247,-0.000014747
1.888000000,-0.203137910,0.492646118,-1.966591935,3.165095865,1.493575809,-0.000011033
1.890000000,-0.202665714,0.492090958,-1.966585626,3.166135190,1.493498317,-0.000008667
1.892000000,-0.202192551,0.491513400,-1.966592767,3.167181031,1.493423093,-0.000007152
1.894000000,-0.201718461,0.490915271,-1.966613949,3.168217572,1.493352462,-0.000006173
1.896000000,-0.201243421,0.490298401,-1.966649515,3.169230684,1.493287003,-0.000005530
1.898000000,-0.200767231,0.489664353,-1.966699473,3.170208231,1.493226322,-0.000005102
1.900000000,-0.200289797,0.489014572,-1.966763854,3.171141882,1.493169058,-0.000004811
1.902000000,-0.199811059,0.488350693,-1.966842547,3.172027233,1.493113491,-0.000004612
1.904000000,-0.199331508,0.487674319,-1.966935344,3.172869707,1.493057061,-0.006418799
1.906000000,-0.198849959,0.486988030,-1.967041921,3.173654452,1.493000800,-0.004109546
1.908000000,-0.198366940,0.486291371,-1.967161482,3.174400243,1.492946074,-0.002631625
1.910000000,-0.197882729,0.485587459,-1.967293715,3.175112683,1.492888187,-0.001685760
1.912000000,-0.197397489,0.484877696,-1.967437887,3.175799433,1.492828350,-0.001080407
1.914000000,-0.196911128,0.484162872,-1.967592978,3.176469459,1.492768665,-0.000692983
1.916000000,-0.196423644,0.483443983,-1.967757879,3.177131561,1.492709881,-0.000445034
1.918000000,-0.195935095,0.482721932,-1.967931405,3.177793729,1.492651988,-0.000286349
1.920000000,-0.195445552,0.481997440,-1.968112283,3.178462791,1.492594715,-0.000184793
1.922000000,-0.194955084,0.481271082,-1.968299155,3.179144098,1.492537665,-0.000119801
1.924000000,-0.194463771,0.480543326,-1.968490615,3.179841304,1.492480415,-0.000078212
1.926000000,-0.193971700,0.479814556,-1.968685235,3.180556315,1.492422629,-0.000051603
1.928000000,-0.193478963,0.479085091,-1.968881585,3.181289355,1.492364127,-0.000034584
1.930000000,-0.192985665,0.478355211,-1.969078266,3.182039144,1.492304885,-0.000023705
1.932000000,-0.192491919,0.477625172,-1.969273924,3.182803149,1.492245001,-0.000016757
1.934000000,-0.191997850,0.476895231,-1.969467277,3.183577897,1.492184645,-0.000012326
1.936000000,-0.191503596,0.476165658,-1.969657128,3.184359311,1.492124013,-0.000009501
1.938000000,-0.191009306,0.475436742,-1.969842382,3.185143053,1.492063294,-0.000007696
1.940000000,-0.190515141,0.474708800,-1.970022051,3.185924836,1.492002645,-0.000006538
1.942000000,-0.190021270,0.473982179,-1.970195264,3.186700708,1.491942191,-0.000005787
1.944000000,-0.189527837,0.473257242,-1.970361222,3.187467142,1.491882097,-0.000005293
1.946000000,-0.189034428,0.472533969,-1.970518591,3.188219227,1.491823611,-0.000004967
1.948000000,-0.188540613,0.471811449,-1.970666364,3.188953001,1.491767732,-0.000004745
1.950000000,-0.188047849,0.471089289,-1.970804192,3.189676582,1.491714450,-0.007575013
1.953000000,-0.187303506,0.470006422,-1.970990083,3.190706520,1.491634263,-0.003880488
1.954000000,-0.187055374,0.469645280,-1.971046561,3.191043414,1.491608938,-0.003105237
1.956000000,-0.186558612,0.468923432,-1.971151287,3.191709454,1.491555780,-0.001988878
1.958000000,-0.186061622,0.468203091,-1.971245308,3.192367612,1.491498211,-0.001274409
1.960000000,-0.185564506,0.467484212,-1.971328788,3.193021940,1.491438151,-0.000817149
1.962000000,-0.185067380,0.466766964,-1.971401968,3.193676528,1.491377171,-0.000524503
1.964000000,-0.184570455,0.466051723,-1.971465217,3.194334805,1.491316036,-0.000337210
1.966000000,-0.184073980,0.465338829,-1.971518986,3.194999408,1.491255177,-0.000217344
1.968000000,-0.183578211,0.464628573,-1.971563769,3.195672090,1.491194803,-0.000140633
1.970000000,-0.183083411,0.463921227,-1.971600101,3.196353652,1.491134901,-0.000091541
1.972000000,-0.182589848,0.463217054,-1.971628552,3.197043949,1.491075318,-0.000060129
1.974000000,-0.182097795,0.462516312,-1.971649723,3.197741972,1.491015872,-0.000040034
1.976000000,-0.181607523,0.461819263,-1.971664240,3.198445986,1.490956435,-0.000027185
1.978000000,-0.181119304,0.461126178,-1.971672751,3.199153706,1.490896970,-0.000018976
1.980000000,-0.180633411,0.460437343,-1.971675923,3.199862478,1.490837526,-0.000013737
1.982000000,-0.180150116,0.459753068,-1.971674435,3.200569485,1.490778222,-0.000010397
1.984000000,-0.179669691,0.459073682,-1.971668977,3.201271925,1.490719207,-0.000008266
1.986000000,-0.179192410,0.458399538,-1.971660240,3.201967178,1.490660633,-0.000006902
1.988000000,-0.178718547,0.457731008,-1.971648912,3.202652940,1.490602634,-0.000006021
1.990000000,-0.178248376,0.457068486,-1.971635672,3.203327319,1.490545311,-0.000005446
1.992000000,-0.177782168,0.456412375,-1.971621179,3.203988895,1.490488735,-0.000005064
1.994000000,-0.177319967,0.455763000,-1.971605790,3.204635911,1.490433397,-0.000004808
1.996000000,-0.176861404,0.455120000,-1.971589464,3.205265568,1.490380477,-0.000004634
1.998000000,-0.176406709,0.454482587,-1.971572417,3.205882415,1.490329574,-0.005719879
2.000000000,-0.175954619,0.453851243,-1.971554826,3.206470772,1.490281778,-0.003662241
2.002000000,-0.175505483,0.453223838,-1.971536596,3.207044642,1.490237961,-0.002345352
2.004000000,-0.175059410,0.452601795,-1.971518300,3.207604773,1.490192180,-0.001502545
2.006000000,-0.174616444,0.451985095,-1.971500224,3.208153185,1.490144271,-0.000963149
2.008000000,-0.174176422,0.451373302,-1.971482510,3.208692905,1.490095476,-0.000617936
2.010000000,-0.173739260,0.450766312,-1.971465319,3.209226957,1.490046361,-0.000397000
2.012000000,-0.173304928,0.450164089,-1.971448826,3.209758083,1.489997195,-0.000255602
2.014000000,-0.172873411,0.449566552,-1.971433184,3.210288656,1.489948228,-0.000165110
2.016000000,-0.172444696,0.448973598,-1.971418510,3.210820567,1.489899626,-0.000107199
2.018000000,-0.172018783,0.448385120,-1.971404893,3.211355125,1.489851431,-0.000070141
2.020000000,-0.171595674,0.447801010,-1.971392395,3.211893028,1.489803590,-0.000046432
2.022000000,-0.171175376,0.447221159,-1.971381057,3.212434379,1.489756009,-0.000031270
2.024000000,-0.170757899,0.446645467,-1.971370898,3.212978748,1.489708603,-0.000021580
2.026000000,-0.170343257,0.446073843,-1.971361922,3.213525256,1.489661319,-0.000015395
2.028000000,-0.169931466,0.445506215,-1.971354122,3.214072688,1.489614144,-0.000011451
2.030000000,-0.169522543,0.444942530,-1.971347482,3.214619611,1.489567106,-0.000008937
2.032000000,-0.169116512,0.444382754,-1.971341983,3.215164493,1.489520259,-0.000007331
2.034000000,-0.168713396,0.443826879,-1.971337602,3.215705822,1.489473669,-0.000006298
2.036000000,-0.168313225,0.443274917,-1.971334316,3.216242204,1.489427399,-0.000005626
2.038000000,-0.167916028,0.442726898,-1.971332103,3.216772445,1.489381504,-0.000005183
2.040000000,-0.167521839,0.442182872,-1.971330940,3.217295606,1.489336021,-0.000004886
2.042000000,-0.167130682,0.441642900,-1.971330793,3.217811014,1.489290992,-0.000004683
2.044000000,-0.166742933,0.441106901,-1.971331566,3.218323539,1.489245738,-0.005432271
2.046000000,-0.166357518,0.440575673,-1.971333135,3.218817406,1.489201808,-0.003478167
2.048000000,-0.165974874,0.440047290,-1.971335088,3.219304858,1.489161376,-0.002227540
2.050000000,-0.165595141,0.439523246,-1.971337635,3.219784897,1.489119594,-0.001427140
2.052000000,-0.165218404,0.439003640,-1.971340709,3.220257436,1.489076744,-0.000914885
2.054000000,-0.164844552,0.438488160,-1.971344122,3.220723237,1.489034083,-0.000587042
2.056000000,-0.164473539,0.437976806,-1.971347723,3.221183137,1.488991972,-0.000377224
2.058000000,-0.164105359,0.437469647,-1.971351399,3.221637911,1.488950358,-0.000242942
2.060000000,-0.163740020,0.436966714,-1.971355042,3.222088309,1.488909169,-0.000157005
2.062000000,-0.163377528,0.436468026,-1.971358540,3.222535011,1.488868344,-0.000102009
2.064000000,-0.163017893,0.435973596,-1.971361781,3.222978582,1.488827820,-0.000066818
2.066000000,-0.162661128,0.435483434,-1.971364660,3.223419439,1.488787544,-0.000044304
2.068000000,-0.162307247,0.434997548,-1.971367073,3.223857839,1.488747492,-0.000029907
2.070000000,-0.161956267,0.434515942,-1.971368923,3.224293883,1.488707666,-0.000020707
2.072000000,-0.161608204,0.434038619,-1.971370121,3.224727526,1.488668087,-0.000014836
2.074000000,-0.161263077,0.433565584,-1.971370587,3.225158601,1.488628783,-0.000011093
2.076000000,-0.160920905,0.433096842,-1.971370252,3.225586841,1.488589782,-0.000008707
2.078000000,-0.160581709,0.432632402,-1.971369060,3.226011913,1.488551108,-0.000007182
2.080000000,-0.160245509,0.432172276,-1.971366965,3.226433451,1.488512776,-0.000006200
2.082000000,-0.159912330,0.431716481,-1.971363937,3.226851084,1.488474797,-0.000005561
2.084000000,-0.159582193,0.431265036,-1.971359959,3.227264462,1.488437178,-0.000005139
2.086000000,-0.159255123,0.430817966,-1.971355028,3.227673285,1.488399925,-0.000004855
2.088000000,-0.158931144,0.430375296,-1.971349154,3.228077314,1.488363043,-0.000004661
2.090000000,-0.158610692,0.429936948,-1.971342392,3.228481728,1.488325720,-0.005191541
2.092000000,-0.158292775,0.429503760,-1.971334734,3.228871427,1.488289291,-0.003324097
2.094000000,-0.157977806,0.429073858,-1.971325857,3.229257947,1.488256178,-0.002128933
2.096000000,-0.157665900,0.428648622,-1.971316071,3.229639883,1.488221878,-0.001364029
2.098000000,-0.157357126,0.428228099,-1.971305411,3.230016606,1.488186755,-0.000874492
2.100000000,-0.157051378,0.427811953,-1.971293813,3.230388229,1.488152001,-0.000561188
2.102000000,-0.156748614,0.427400158,-1.971281260,3.230754915,1.488117892,-0.000360675
2.104000000,-0.156448834,0.426992758,-1.971267783,3.231116798,1.488084303,-0.000232349
2.106000000,-0.156152046,0.426589769,-1.971253425,3.231474043,1.488051106,-0.000150223
2.108000000,-0.155858264,0.426191198,-1.971238230,3.231826850,1.488018219,-0.000097667
2.110000000,-0.155567503,0.425797053,-1.971222248,3.232175416,1.487985587,-0.000064037
2.112000000,-0.155279782,0.425407344,-1.971205534,3.232519922,1.487953186,-0.000042523
2.114000000,-0.154995122,0.425022080,-1.971188145,3.232860520,1.487921024,-0.000028767
2.116000000,-0.154713545,0.424641266,-1.971170144,3.233197325,1.487889131,-0.000019977
2.118000000,-0.154435074,0.424264907,-1.971151593,3.233530417,1.487857546,-0.000014369
2.120000000,-0.154159732,0.423893008,-1.971132558,3.233859836,1.487826298,-0.000010794
2.122000000,-0.153887544,0.423525573,-1.971113107,3.234185586,1.487795408,-0.000008515
2.124000000,-0.153618533,0.423162606,-1.971093308,3.234507642,1.487764884,-0.000007057
2.126000000,-0.153352724,0.422804110,-1.971073231,3.234825954,1.487734726,-0.000006119
2.128000000,-0.153090144,0.422450091,-1.971052948,3.235140459,1.487704927,-0.000005506
2.130000000,-0.152830815,0.422100553,-1.971032530,3.235451085,1.487675480,-0.000005101
2.132000000,-0.152574764,0.421755503,-1.971012051,3.235757759,1.487646379,-0.000004828
2.134000000,-0.152322015,0.421414948,-1.970991582,3.236060416,1.487617623,-0.000004641
2.136000000,-0.152072991,0.421078790,-1.970971230,3.236364199,1.487588432,-0.005000500
2.138000000,-0.151826772,0.420747839,-1.970951064,3.236654588,1.487559954,-0.003201828
2.140000000,-0.151583841,0.420420296,-1.970930869,3.236943032,1.487534534,-0.002050677
2.142000000,-0.151344290,0.420097537,-1.970910978,3.237228103,1.487507802,-0.001313943
2.144000000,-0.151108177,0.419779584,-1.970891441,3.237509026,1.487480270,-0.000842433
2.146000000,-0.150875383,0.419466072,-1.970872190,3.237785737,1.487453251,-0.000540668
2.148000000,-0.150645849,0.419156949,-1.970853195,3.238058199,1.487427065,-0.000347540
2.150000000,-0.150419559,0.418852240,-1.970834469,3.238326330,1.487401548,-0.000223940
2.152000000,-0.150196502,0.418551948,-1.970816024,3.238590085,1.487376504,-0.000144839
2.154000000,-0.149976674,0.418256067,-1.970797872,3.238849469,1.487351788,-0.000094219
2.156000000,-0.149760070,0.417964597,-1.970780021,3.239104519,1.487327300,-0.000061829
2.158000000,-0.149546691,0.417677541,-1.970762482,3.239355286,1.487302999,-0.000041109
2.160000000,-0.149336538,0.417394902,-1.970745260,3.239601838,1.487278900,-0.000027861
2.162000000,-0.149129614,0.417116687,-1.970728361,3.239844246,1.487255055,-0.000019397
2.164000000,-0.148925922,0.416842898,-1.970711792,3.240082581,1.487231529,-0.000013997
2.166000000,-0.148725467,0.416573540,-1.970695553,3.240316912,1.487208377,-0.000010556
2.168000000,-0.148528255,0.416308617,-1.970679648,3.240547299,1.487185638,-0.000008362
2.170000000,-0.148334292,0.416048134,-1.970664078,3.240773791,1.487163329,-0.000006958
2.172000000,-0.148143585,0.415792093,-1.970648842,3.240996425,1.487141453,-0.000006053
2.174000000,-0.147956142,0.415540500,-1.970633940,3.241215227,1.487120003,-0.000005462
2.176000000,-0.147771969,0.415293359,-1.970619371,3.241430212,1.487098969,-0.000005070
2.178000000,-0.147591074,0.415050672,-1.970605135,3.241641384,1.487078344,-0.000004806
2.180000000,-0.147413464,0.414812446,-1.970591232,3.241848742,1.487058128,-0.000004625
2.182000000,-0.147239534,0.414578578,-1.970577696,3.242057361,1.487037565,-0.004861144
2.184000000,-0.147068373,0.414349862,-1.970564521,3.242253052,1.487017737,-0.003112639
2.186000000,-0.146900448,0.414124532,-1.970551438,3.242447050,1.487001015,-0.001993595
2.188000000,-0.146735891,0.413903947,-1.970538768,3.242638122,1.486983014,-0.001277409
2.190000000,-0.146574772,0.413688174,-1.970526532,3.242825579,1.486964173,-0.000819050
2.192000000,-0.146416984,0.413476872,-1.970514625,3.243009311,1.486945847,-0.000525702
2.194000000,-0.146262472,0.413269981,-1.970502982,3.243189237,1.486928473,-0.000337960
2.196000000,-0.146111221,0.413067522,-1.970491577,3.243365220,1.486911968,-0.000217807
2.198000000,-0.145963223,0.412869497,-1.970480392,3.243537149,1.486896141,-0.000140913
2.200000000,-0.145818477,0.412675905,-1.970469411,3.243704951,1.486880812,-0.000091705
2.202000000,-0.145676982,0.412486746,-1.970458620,3.243868587,1.486865828,-0.000060220
2.204000000,-0.145538740,0.412302027,-1.970448008,3.244028039,1.486851098,-0.000040078
2.206000000,-0.145403756,0.412121755,-1.970437566,3.244183310,1.486836593,-0.000027201
2.208000000,-0.145272034,0.411945938,-1.970427287,3.244334423,1.486822340,-0.000018975
2.210000000,-0.145143581,0.411774585,-1.970417169,3.244481413,1.486808387,-0.000013727
2.212000000,-0.145018402,0.411607703,-1.970407207,3.244624326,1.486794788,-0.000010383
2.214000000,-0.144896506,0.411445300,-1.970397401,3.244763212,1.486781579,-0.000008251
2.216000000,-0.144777901,0.411287385,-1.970387752,3.244898124,1.486768779,-0.000006886
2.218000000,-0.144662595,0.411133964,-1.970378262,3.245029114,1.486756385,-0.000006006
2.220000000,-0.144550597,0.410985043,-1.970368935,3.245156229,1.486744380,-0.000005431
2.222000000,-0.144441916,0.410840630,-1.970359777,3.245279510,1.486732744,-0.000005048
2.224000000,-0.144336560,0.410700729,-1.970350793,3.245398991,1.486721453,-0.000004791
2.226000000,-0.144234540,0.410565345,-1.970341992,3.245514699,1.486710490,-0.000004614
2.228000000,-0.144136242,0.410434378,-1.970333419,3.245631670,1.486699100,-0.004775674
2.230000000,-0.144040770,0.410308613,-1.970325075,3.245735924,1.486688301,-0.003057937
2.232000000,-0.143948592,0.410186303,-1.970316706,3.245838565,1.486680472,-0.001958585
2.234000000,-0.143859831,0.410068788,-1.970308640,3.245938387,1.486671258,-0.001255001
2.236000000,-0.143774580,0.409956136,-1.970300930,3.246034778,1.486661039,-0.000804708
2.238000000,-0.143692755,0.409848033,-1.970293515,3.246127723,1.486651089,-0.000516522
2.240000000,-0.143614296,0.409744436,-1.970286349,3.246217122,1.486641885,-0.000332084
2.242000000,-0.143539180,0.409645354,-1.970279425,3.246302819,1.486633439,-0.000214046
2.244000000,-0.143467395,0.409550777,-1.970272743,3.246384681,1.486625636,-0.000138505
2.246000000,-0.143398932,0.409460697,-1.970266304,3.246462612,1.486618312,-0.000090164
2.248000000,-0.143333788,0.409375110,-1.970260112,3.246536538,1.486611305,-0.000059233
2.250000000,-0.143271963,0.409294018,-1.970254172,3.246606405,1.486604501,-0.000039447
2.252000000,-0.143213459,0.409217423,-1.970248493,3.246672183,1.486597860,-0.000026797
2.254000000,-0.143158278,0.409145327,-1.970243083,3.246733862,1.486591404,-0.000018716
2.256000000,-0.143106424,0.409077734,-1.970237951,3.246791451,1.486585189,-0.000013562
2.258000000,-0.143057904,0.409014648,-1.970233108,3.246844970,1.486579285,-0.000010277
2.260000000,-0.143012721,0.408956073,-1.970228562,3.246894455,1.486573751,-0.000008183
2.262000000,-0.142970885,0.408902012,-1.970224325,3.246939946,1.486568626,-0.000006842
2.264000000,-0.142932402,0.408852470,-1.970220405,3.246981488,1.486563929,-0.000005977
2.266000000,-0.142897279,0.408807447,-1.970216811,3.247019127,1.486559661,-0.000005411
2.268000000,-0.142865526,0.408766947,-1.970213553,3.247052908,1.486555814,-0.000005035
2.270000000,-0.142837149,0.408730972,-1.970210636,3.247082869,1.486552375,-0.000004781
2.272000000,-0.142813523,0.408699625,-1.970208316,3.247116745,1.486550134,-0.005929998
2.274000000,-0.142790797,0.408672917,-1.970205956,3.247134198,1.486545042,-0.003796718
2.276000000,-0.142772503,0.408650458,-1.970204024,3.247150098,1.486544413,-0.002431403
2.278000000,-0.142757486,0.408632107,-1.970202374,3.247163835,1.486544135,-0.001557604
2.280000000,-0.142746024,0.408618739,-1.970201221,3.247174336,1.486542398,-0.000998373
2.282000000,-0.142738071,0.408610030,-1.970200518,3.247181405,1.486540507,-0.000640466
2.284000000,-0.142733572,0.408605816,-1.970200208,3.247185071,1.486539317,-0.000411407
2.286000000,-0.142732498,0.408606114,-1.970200254,3.247185201,1.486538991,-0.000264811
2.288000000,-0.142734244,0.408610596,-1.970199956,3.247179423,1.486540515,-0.000170993
2.290000000,-0.142738075,0.408617899,-1.970198700,3.247165105,1.486544947,-0.000110954
2.292000000,-0.142743477,0.408626856,-1.970196130,3.247141810,1.486552236,-0.000072535
2.294000000,-0.142750033,0.408636833,-1.970191983,3.247110423,1.486561028,-0.000047956
