; generated by Slic3r 1.3.0 on 2025-09-10 at 15:14:55

; external perimeters extrusion width = 1.10mm (14.89mm^3/s)
; perimeters extrusion width = 1.40mm (38.78mm^3/s)
; infill extrusion width = 1.25mm (45.71mm^3/s)
; solid infill extrusion width = 1.40mm (12.93mm^3/s)
; top infill extrusion width = 1.40mm (9.70mm^3/s)

M107
M104 S205 ; set temperature
G28 ; home all axes
G1 Z5 F5000 ; lift nozzle

; Filament gcode

M109 S205 ; set temperature and wait for it to be reached
G21 ; set units to millimeters
G90 ; use absolute coordinates
M82 ; use absolute distances for extrusion
G92 E0
G1 Z0.500 F7800.000
G1 X70.379 Y71.853 F7800.000
G1 F1800
G1 X71.097 Y71.474 E0.05125
G1 X71.939 Y71.190 E0.10737
G1 X72.749 Y71.053 E0.15922
G1 X73.633 Y71.077 E0.21507
G1 X74.665 Y71.153 E0.28040
G1 X75.716 Y71.170 E0.34675
G1 X76.675 Y71.282 E0.40774
G1 X77.750 Y71.489 E0.47689
G1 X79.031 Y71.543 E0.55783
G1 X80.254 Y71.374 E0.63578
G1 X81.488 Y71.118 E0.71539
G1 X83.787 Y70.136 E0.87322
G1 X84.521 Y69.729 E0.92623
G1 X86.275 Y68.250 E1.07108
G1 X87.046 Y67.306 E1.14809
G1 X88.485 Y65.359 E1.30098
G1 X90.113 Y64.106 E1.43066
G1 X90.801 Y63.902 E1.47599
G1 X91.669 Y63.826 E1.53101
G1 X92.554 Y63.849 E1.58691
G1 X93.508 Y63.948 E1.64747
G1 X95.534 Y64.292 E1.77722
G1 X97.564 Y64.742 E1.90852
G1 X98.560 Y65.026 E1.97394
G1 X99.609 Y65.352 E2.04331
G1 X100.757 Y65.622 E2.11778
G1 X102.938 Y66.069 E2.25839
G1 X104.093 Y66.217 E2.33186
G1 X107.319 Y66.395 E2.53590
G1 X108.420 Y66.424 E2.60543
G1 X110.580 Y66.393 E2.74186
G1 X112.730 Y66.192 E2.87825
G1 X114.700 Y66.033 E3.00302
G1 X116.450 Y66.280 E3.11462
G1 X118.272 Y67.117 E3.24126
G1 X119.009 Y67.605 E3.29706
G1 X120.214 Y68.583 E3.39504
G1 X121.879 Y69.759 E3.52379
G1 X122.534 Y70.119 E3.57094
G1 X124.806 Y71.162 E3.72882
G1 X127.153 Y71.731 E3.88133
G1 X129.385 Y71.986 E4.02315
G1 X130.342 Y71.999 E4.08363
G1 X131.553 Y72.064 E4.16020
G1 X133.213 Y72.500 E4.26856
G1 X135.149 Y73.386 E4.40298
G1 X137.129 Y74.414 E4.54387
G1 X137.705 Y74.876 E4.59050
G1 X139.224 Y75.965 E4.70852
G1 X139.578 Y76.304 E4.73947
G1 X140.966 Y78.154 E4.88552
G1 X141.931 Y79.583 E4.99440
G1 X142.358 Y81.538 E5.12076
G1 X142.780 Y83.355 E5.23855
G1 X142.486 Y85.142 E5.35291
G1 X142.111 Y87.109 E5.47936
G1 X142.070 Y87.205 E5.48595
G1 X140.922 Y89.165 E5.62940
G1 X139.814 Y90.808 E5.75451
G1 X137.841 Y92.593 E5.92249
G1 X137.001 Y93.425 E5.99715
G1 X135.131 Y94.705 E6.14028
G1 X134.043 Y95.155 E6.21464
G1 X133.288 Y95.401 E6.26475
G1 X131.307 Y95.840 E6.39286
G1 X129.191 Y96.211 E6.52857
G1 X127.347 Y96.734 E6.64957
G1 X126.611 Y97.090 E6.70121
G1 X125.263 Y98.206 E6.81169
G1 X124.475 Y99.676 E6.91703
G1 X124.213 Y101.061 E7.00606
G1 X124.203 Y102.327 E7.08599
G1 X124.345 Y104.364 E7.21495
G1 X124.340 Y105.323 E7.27545
G1 X124.236 Y106.189 E7.33056
G1 X123.985 Y107.086 E7.38937
G1 X123.608 Y107.837 E7.44246
G1 X123.114 Y108.519 E7.49563
G1 X122.217 Y109.419 E7.57585
G1 X122.037 Y109.572 E7.59077
G1 X121.348 Y110.069 E7.64440
G1 X120.463 Y110.552 E7.70809
G1 X119.559 Y110.911 E7.76953
G1 X118.637 Y111.168 E7.82995
G1 X117.683 Y111.345 E7.89123
G1 X116.696 Y111.469 E7.95399
G1 X114.600 Y111.659 E8.08690
G1 X110.458 Y111.964 E8.34919
G1 X107.356 Y112.071 E8.54518
G1 X105.212 Y112.059 E8.68056
G1 X103.989 Y112.161 E8.75802
G1 X101.799 Y112.622 E8.89939
G1 X100.620 Y112.924 E8.97623
G1 X99.458 Y113.407 E9.05567
G1 X98.449 Y113.858 E9.12546
G1 X97.544 Y114.168 E9.18586
G1 X94.505 Y114.762 E9.38140
G1 X93.586 Y114.909 E9.44019
G1 X92.731 Y114.909 E9.49414
G1 X91.722 Y114.782 E9.55841
G1 X90.773 Y114.636 E9.61899
G1 X89.789 Y114.452 E9.68225
G1 X87.784 Y113.938 E9.81296
G1 X86.522 Y113.560 E9.89612
G1 X85.829 Y113.285 E9.94321
G1 X84.355 Y112.600 E10.04583
G1 X84.050 Y112.406 E10.06867
G1 X83.572 Y111.929 E10.11131
G1 X82.759 Y110.219 E10.23088
G1 X82.429 Y108.228 E10.35831
G1 X81.673 Y105.850 E10.51591
G1 X80.017 Y103.525 E10.69614
G1 X79.758 Y103.284 E10.71846
G1 X77.534 Y101.619 E10.89393
G1 X76.190 Y101.119 E10.98445
G1 X74.992 Y100.857 E11.06191
G1 X73.759 Y100.702 E11.14037
G1 X73.053 Y100.734 E11.18498
G1 X72.571 Y100.799 E11.21570
G1 X71.747 Y100.784 E11.26773
G1 X70.852 Y100.644 E11.32494
G1 X70.425 Y100.530 E11.35286
G1 X70.002 Y100.386 E11.38105
G1 X69.405 Y100.237 E11.41989
G1 X68.679 Y99.937 E11.46950
G1 X68.453 Y99.761 E11.48759
G1 X67.979 Y98.960 E11.54633
G1 X67.630 Y98.597 E11.57813
G1 X66.711 Y97.834 E11.65357
G1 X66.347 Y97.494 E11.68502
G1 X66.175 Y97.274 E11.70266
G1 X65.782 Y96.550 E11.75465
G1 X65.716 Y96.050 E11.78649
G1 X65.926 Y95.354 E11.83237
G1 X66.367 Y94.300 E11.90457
G1 X66.630 Y93.415 E11.96284
G1 X66.955 Y92.085 E12.04928
G1 X67.224 Y91.154 E12.11050
G1 X67.605 Y90.300 E12.16954
G1 X68.204 Y89.410 E12.23730
G1 X68.423 Y89.147 E12.25894
G1 X69.465 Y88.016 E12.35602
G1 X71.215 Y86.013 E12.52401
G1 X71.601 Y83.062 E12.71192
G1 X70.323 Y80.509 E12.89223
G1 X69.578 Y79.370 E12.97812
G1 X68.841 Y78.336 E13.05833
G1 X68.130 Y77.293 E13.13801
G1 X67.689 Y76.560 E13.19204
G1 X67.581 Y75.127 E13.28283
G1 X67.904 Y74.726 E13.31532
G1 X68.472 Y74.085 E13.36941
G1 X69.600 Y72.653 E13.48454
G1 X70.275 Y71.960 E13.54559
G1 X69.740 Y71.230 F7800.000
G1 F1800
G1 X69.876 Y71.109 E13.55707
G1 X70.744 Y70.652 E13.61905
G1 X71.721 Y70.321 E13.68416
G1 X72.686 Y70.159 E13.74596
G1 X73.678 Y70.185 E13.80862
G1 X74.705 Y70.261 E13.87365
G1 X75.775 Y70.278 E13.94120
G1 X76.811 Y70.399 E14.00711
G1 X77.854 Y70.600 E14.07416
G1 X78.988 Y70.648 E14.14585
G1 X80.102 Y70.494 E14.21683
G1 X81.220 Y70.262 E14.28891
G1 X83.394 Y69.333 E14.43821
G1 X84.012 Y68.990 E14.48283
G1 X85.636 Y67.621 E14.61697
G1 X86.342 Y66.758 E14.68737
G1 X87.842 Y64.728 E14.84678
G1 X89.700 Y63.298 E14.99482
G1 X90.633 Y63.020 E15.05634
G1 X91.642 Y62.932 E15.12025
G1 X92.612 Y62.958 E15.18152
G1 X93.629 Y63.063 E15.24608
G1 X95.705 Y63.416 E15.37907
G1 X97.783 Y63.876 E15.51345
G1 X98.815 Y64.171 E15.58123
G1 X99.844 Y64.491 E15.64926
G1 X100.949 Y64.750 E15.72093
G1 X103.085 Y65.188 E15.85863
G1 X104.174 Y65.327 E15.92794
G1 X107.356 Y65.503 E16.12917
G1 X108.425 Y65.531 E16.19673
G1 X110.532 Y65.501 E16.32978
G1 X112.653 Y65.302 E16.46430
G1 X114.727 Y65.135 E16.59568
G1 X116.704 Y65.414 E16.72178
G1 X118.707 Y66.335 E16.86099
G1 X119.538 Y66.884 E16.92389
G1 X120.753 Y67.871 E17.02275
G1 X122.353 Y69.001 E17.14642
G1 X122.935 Y69.321 E17.18836
G1 X125.100 Y70.315 E17.33877
G1 X127.310 Y70.850 E17.48233
G1 X129.442 Y71.094 E17.61784
G1 X130.373 Y71.107 E17.67663
G1 X131.692 Y71.178 E17.76006
G1 X133.514 Y71.656 E17.87903
G1 X135.540 Y72.583 E18.01972
G1 X137.618 Y73.662 E18.16755
G1 X138.245 Y74.164 E18.21825
G1 X139.795 Y75.276 E18.33874
G1 X140.248 Y75.709 E18.37831
G1 X141.694 Y77.636 E18.53041
G1 X142.739 Y79.184 E18.64835
G1 X142.775 Y79.260 E18.65367
G1 X143.229 Y81.342 E18.78820
G1 X143.689 Y83.325 E18.91678
G1 X143.365 Y85.298 E19.04303
G1 X142.970 Y87.371 E19.17629
G1 X142.869 Y87.608 E19.19253
G1 X141.678 Y89.641 E19.34134
G1 X140.493 Y91.397 E19.47508
G1 X138.455 Y93.241 E19.64864
G1 X137.572 Y94.116 E19.72713
G1 X135.558 Y95.494 E19.88124
G1 X134.352 Y95.993 E19.96366
G1 X133.523 Y96.263 E20.01870
G1 X131.481 Y96.715 E20.15079
G1 X129.390 Y97.082 E20.28485
G1 X127.666 Y97.571 E20.39802
G1 X127.097 Y97.847 E20.43792
G1 X125.967 Y98.782 E20.53053
G1 X125.326 Y99.977 E20.61614
G1 X125.105 Y101.148 E20.69144
G1 X125.096 Y102.300 E20.76414
G1 X125.238 Y104.335 E20.89301
G1 X125.233 Y105.378 E20.95886
G1 X125.114 Y106.362 E21.02141
G1 X124.805 Y107.442 E21.09236
G1 X124.373 Y108.303 E21.15317
G1 X123.810 Y109.079 E21.21374
G1 X123.648 Y109.261 E21.22909
G1 X122.821 Y110.076 E21.30241
G1 X122.590 Y110.275 E21.32167
G1 X121.825 Y110.826 E21.38121
G1 X120.843 Y111.362 E21.45186
G1 X119.844 Y111.758 E21.51974
G1 X118.838 Y112.038 E21.58565
G1 X117.820 Y112.227 E21.65104
G1 X116.793 Y112.357 E21.71643
G1 X114.673 Y112.548 E21.85080
G1 X110.506 Y112.855 E22.11467
G1 X107.369 Y112.963 E22.31288
G1 X105.246 Y112.952 E22.44689
G1 X104.119 Y113.046 E22.51835
G1 X102.001 Y113.491 E22.65498
G1 X100.903 Y113.773 E22.72655
G1 X99.812 Y114.227 E22.80120
G1 X98.777 Y114.689 E22.87281
G1 X97.776 Y115.033 E22.93961
G1 X94.661 Y115.641 E23.14001
G1 X93.657 Y115.802 E23.20424
G1 X92.675 Y115.802 E23.26620
G1 X91.598 Y115.666 E23.33477
G1 X90.623 Y115.516 E23.39704
G1 X89.595 Y115.324 E23.46308
G1 X87.544 Y114.798 E23.59677
G1 X86.229 Y114.404 E23.68350
G1 X85.476 Y114.106 E23.73465
G1 X83.926 Y113.385 E23.84260
G1 X83.488 Y113.107 E23.87533
G1 X82.832 Y112.452 E23.93388
G1 X81.899 Y110.489 E24.07114
G1 X81.559 Y108.437 E24.20245
G1 X80.865 Y106.254 E24.34714
G1 X79.342 Y104.116 E24.51283
G1 X79.185 Y103.970 E24.52640
G1 X77.102 Y102.411 E24.69071
G1 X75.938 Y101.978 E24.76914
G1 X74.840 Y101.738 E24.84007
G1 X73.723 Y101.597 E24.91117
G1 X73.132 Y101.624 E24.94850
G1 X72.622 Y101.692 E24.98102
G1 X71.670 Y101.676 E25.04116
G1 X70.667 Y101.519 E25.10526
G1 X70.165 Y101.384 E25.13804
G1 X69.750 Y101.243 E25.16575
G1 X69.125 Y101.087 E25.20643
G1 X68.298 Y100.745 E25.26295
G1 X68.189 Y100.687 E25.27072
G1 X67.771 Y100.361 E25.30418
G1 X67.264 Y99.504 E25.36705
G1 X67.021 Y99.252 E25.38916
G1 X66.127 Y98.510 E25.46252
G1 X65.794 Y98.210 E25.49082
G1 X65.666 Y98.072 E25.50272
G1 X65.426 Y97.765 E25.52731
G1 X64.919 Y96.831 E25.59444
G1 X64.806 Y95.977 E25.64883
G1 X65.084 Y95.053 E25.70978
G1 X65.525 Y93.999 E25.78188
G1 X65.768 Y93.182 E25.83572
G1 X66.092 Y91.856 E25.92195
G1 X66.383 Y90.847 E25.98826
G1 X66.821 Y89.866 E26.05610
G1 X67.489 Y88.874 E26.13160
G1 X67.752 Y88.558 E26.15753
G1 X68.801 Y87.420 E26.25529
G1 X70.365 Y85.629 E26.40545
G1 X70.681 Y83.217 E26.55904
G1 X69.548 Y80.954 E26.71884
G1 X68.841 Y79.874 E26.80035
G1 X68.108 Y78.847 E26.88003
G1 X67.378 Y77.775 E26.96190
G1 X66.815 Y76.839 E27.03092
G1 X66.674 Y74.971 E27.14923
G1 X66.792 Y74.683 E27.16885
G1 X67.222 Y74.149 E27.21215
G1 X67.787 Y73.512 E27.26590
G1 X68.928 Y72.064 E27.38235
G1 X69.635 Y71.337 E27.44637
G1 X69.850 Y71.255 F7800.000
G1 X70.574 Y72.924 F7800.000
G1 F1800
G1 X71.268 Y72.229 E27.50912
G1 X71.798 Y71.950 E27.54741
G1 X72.505 Y71.711 E27.59510
G1 X73.174 Y71.601 E27.63840
G1 X68.211 Y76.564 E28.08688
G1 X68.216 Y76.629 E28.09104
G1 X68.680 Y77.372 E28.14705
G1 X74.397 Y71.656 E28.66367
G1 X74.972 Y71.698 E28.70053
G1 X75.622 Y71.708 E28.74204
G1 X69.198 Y78.132 E29.32255
G1 X69.729 Y78.879 E29.38109
G1 X76.800 Y71.808 E30.02010
G1 X77.877 Y72.008 E30.09009
G1 X70.246 Y79.639 E30.77966
G1 X70.751 Y80.411 E30.83864
G1 X79.086 Y72.077 E31.59182
G1 X79.421 Y72.091 E31.61325
G1 X80.498 Y71.942 E31.68274
G1 X71.178 Y81.263 E32.52502
G1 X71.604 Y82.114 E32.58586
G1 X82.087 Y71.630 E33.53326
G1 X84.312 Y70.683 E33.68777
G1 X72.030 Y82.965 E34.79769
G1 X72.175 Y83.254 E34.81831
G1 X72.048 Y84.225 E34.88093
G1 X91.887 Y64.386 E36.67380
G1 X92.043 Y64.373 E36.68382
G1 X92.843 Y64.394 E36.73496
G1 X93.128 Y64.423 E36.75323
G1 X71.855 Y85.695 E38.67559
G1 X71.718 Y86.744 E38.74315
G1 X69.783 Y88.960 E38.93118
G1 X68.770 Y90.058 E39.02667
G1 X94.254 Y64.574 E41.32966
G1 X95.346 Y64.760 E41.40046
G1 X67.481 Y92.625 E43.91862
G1 X67.145 Y93.995 E44.00880
G1 X67.042 Y94.342 E44.03188
G1 X96.407 Y64.976 E46.68565
G1 X97.453 Y65.208 E46.75410
G1 X66.318 Y96.343 E49.56783
G1 X66.279 Y96.471 E49.57632
G1 X66.299 Y96.617 E49.58572
G1 X66.577 Y97.129 E49.62301
G1 X66.682 Y97.256 E49.63355
G1 X98.459 Y65.479 E52.50523
G1 X99.437 Y65.779 E52.57061
G1 X67.364 Y97.852 E55.46905
G1 X67.892 Y98.290 E55.51285
G1 X68.045 Y98.449 E55.52696
G1 X100.455 Y66.039 E58.45585
G1 X101.504 Y66.268 E58.52445
G1 X68.593 Y99.178 E61.49858
G1 X68.787 Y99.506 E61.52293
G1 X69.321 Y99.727 E61.55988
G1 X102.564 Y66.485 E64.56398
G1 X103.139 Y66.603 E64.60153
G1 X103.657 Y66.669 E64.63488
G1 X70.312 Y100.014 E67.64823
G1 X70.690 Y100.117 E67.67320
G1 X71.379 Y100.225 E67.71782
G1 X104.820 Y66.784 E70.73982
G1 X106.030 Y66.851 E70.81730
G1 X72.693 Y100.189 E73.83000
G1 X73.447 Y100.154 E73.87823
G1 X73.943 Y100.216 E73.91015
G1 X107.241 Y66.918 E76.91933
G1 X108.475 Y66.962 E76.99820
G1 X75.056 Y100.381 E80.01824
G1 X76.103 Y100.611 E80.08676
G1 X109.759 Y66.956 E83.12821
G1 X111.062 Y66.930 E83.21150
G1 X77.035 Y100.957 E86.28655
G1 X77.618 Y101.174 E86.32634
G1 X77.891 Y101.379 E86.34812
G1 X112.472 Y66.798 E89.47317
G1 X113.871 Y66.676 E89.56293
G1 X78.622 Y101.925 E92.74841
G1 X79.352 Y102.472 E92.80673
G1 X115.214 Y66.611 E96.04753
G1 X116.333 Y66.769 E96.11978
G1 X80.074 Y103.028 E99.39656
G1 X80.344 Y103.280 E99.42019
G1 X80.658 Y103.721 E99.45478
G1 X117.254 Y67.125 E102.76196
G1 X118.130 Y67.528 E102.82352
G1 X81.190 Y104.467 E106.16177
G1 X81.721 Y105.214 E106.22031
G1 X118.899 Y68.036 E109.58005
G1 X119.604 Y68.609 E109.63809
G1 X82.203 Y106.010 E113.01802
G1 X82.511 Y106.979 E113.08302
G1 X120.327 Y69.163 E116.50041
G1 X121.075 Y69.692 E116.55898
G1 X82.820 Y107.948 E120.01617
G1 X82.952 Y108.366 E120.04419
G1 X83.056 Y108.990 E120.08459
G1 X121.831 Y70.214 E123.58876
G1 X122.667 Y70.656 E123.64917
G1 X83.237 Y110.086 E127.21246
G1 X83.272 Y110.296 E127.22610
G1 X83.604 Y110.996 E127.27560
G1 X123.543 Y71.058 E130.88481
G1 X124.418 Y71.460 E130.94638
G1 X84.045 Y111.833 E134.59496
G1 X84.264 Y112.052 E134.61477
G1 X84.437 Y112.163 E134.62789
G1 X84.817 Y112.339 E134.65462
G1 X125.370 Y71.786 E138.31941
G1 X126.398 Y72.035 E138.38703
G1 X85.689 Y112.744 E142.06594
G1 X86.606 Y113.105 E142.12891
G1 X127.436 Y72.275 E145.81870
G1 X128.583 Y72.406 E145.89245
G1 X87.589 Y113.399 E149.59703
G1 X88.603 Y113.663 E149.66398
G1 X129.735 Y72.531 E153.38104
G1 X130.982 Y72.562 E153.46075
G1 X89.620 Y113.923 E157.19860
G1 X90.699 Y114.122 E157.26870
G1 X132.123 Y72.698 E161.01216
G1 X133.134 Y72.964 E161.07901
G1 X91.814 Y114.285 E164.81313
G1 X92.440 Y114.363 E164.85347
G1 X93.013 Y114.363 E164.89005
G1 X134.028 Y73.349 E168.59656
G1 X134.904 Y73.750 E168.65816
G1 X94.526 Y114.128 E172.30711
G1 X96.114 Y113.817 E172.41049
G1 X135.753 Y74.178 E175.99269
G1 X136.594 Y74.615 E176.05324
G1 X97.884 Y113.325 E179.55146
G1 X98.757 Y112.935 E179.61259
G1 X99.989 Y112.422 E179.69782
G1 X100.090 Y112.396 E179.70452
G1 X137.365 Y75.121 E183.07303
G1 X138.102 Y75.662 E183.13143
G1 X101.775 Y111.989 E186.41425
G1 X103.394 Y111.648 E186.51992
G1 X138.846 Y76.196 E189.72373
G1 X139.000 Y76.306 E189.73586
G1 X139.256 Y76.551 E189.75846
G1 X139.475 Y76.844 E189.78186
G1 X104.804 Y111.516 E192.91515
G1 X106.077 Y111.520 E192.99650
G1 X140.023 Y77.574 E196.06424
G1 X140.571 Y78.304 E196.12255
G1 X107.362 Y111.512 E199.12362
G1 X108.685 Y111.467 E199.20823
G1 X141.086 Y79.065 E202.13634
G1 X141.443 Y79.593 E202.17703
G1 X141.513 Y79.916 E202.19816
G1 X110.008 Y111.421 E205.04527
G92 E0
G1 X121.261 Y109.112 F7800.000
G1 F1800
G1 X122.779 Y107.591 E0.13732
G1 X123.190 Y107.025 E0.18203
G1 X123.496 Y106.415 E0.22562
G1 X123.705 Y105.667 E0.27523
G1 X123.743 Y105.352 E0.29552
G1 X118.590 Y110.504 E0.76114
G1 X118.088 Y110.644 E0.79446
G1 X116.981 Y110.837 E0.86629
G1 X123.797 Y104.020 E1.48233
G1 X123.714 Y102.826 E1.55882
G1 X115.547 Y110.992 E2.29685
G1 X114.143 Y111.119 E2.38692
G1 X123.660 Y101.602 E3.24696
G1 X123.669 Y100.627 E3.30926
G1 X123.741 Y100.244 E3.33418
G1 X112.764 Y111.220 E4.32612
G1 X111.385 Y111.322 E4.41449
G1 X124.307 Y98.400 E5.58223
G1 X123.612 Y99.095 F7800.000
G1 F1800
G1 X124.212 Y97.977 E5.66328
G1 X125.778 Y96.681 E5.79315
G1 X126.259 Y96.448 E5.82735
G1 X141.742 Y80.965 E7.22652
G1 X141.978 Y82.007 E7.29476
G1 X128.161 Y95.824 E8.54342
